!!!!SEGMENT: pl-cz--iii-558--001-009_raszek-waclaw--missa-in-c-sanctus.krn
!!!cenid: 17xx:1043
!!!COM: Raszek, Wacław
!!!COM-rismID: pe30020314
!!!CDT: <1848->1848
!!!CNT:
!!!OPR: Missa in C
!!!OTL: Sanctus
!!!OMV: 009
!!!PDT: 1789
!!!AGN: Sacred; Mass
!!!YEC: Copyright 2022 Narodowy Instytut Fryderyka Chopina (https://polishscores.org)
!!!YEM: License CC-BY-4.0 (https://creativecommons.org/licenses/by/4.0)
!!!SMS-siglum: PL-CZ
!!!SMS-shelfmark: III-558
!!!SMS-shelfwork: 001-009 M
!!!SMS-variant:
!!!SMS-altvar:
!!!NIFC-rismSourceID: 300001044
!!!NIFC-rismChildID: 300001044
!!!NIFC-islandoraID: pl-cz:38990
!!!URL-pdf-islandora: https://repozytorium.nifc.pl/islandora/object/pl-cz%3A38990/datastream/PDF/view
!!!URL-scan: https://polish.musicsources.pl/pl/lokalizacje/galeria/rekopisy/6948/1 @EN{Scan on Polish Music Sources Website} @PL{Skany w portalu Dziedzictwo Muzyki Polskiej w otwartym dostępie}
!!!IIIF:
!!!ONB-nifc: UWAGA: części Mszy: Kyrie, Gloria, Laudamus, Qui tollis, Quoniam, Credo, Et incarnatus, Et resurrexit, Sanctus, Benedictus, Agnus Dei, Dona nobis
!!!AIN: 1 alto 1 bass 2 cor 2 oboe 1 organ 1 soprn 1 tenor 2 tromp 1 viola 2 violn
!!!key: C
**kern	**fba	**dynam	**kern	**dynam	**kern	**dynam	**kern	**dynam	**kern	**text	**dynam	**kern	**text	**dynam	**kern	**text	**dynam	**kern	**text	**dynam	**kern	**dynam	**kern	**dynam	**kern	**dynam	**kern	**dynam	**kern	**dynam	**kern	**dynam
*part14	*	*	*part13	*	*part12	*	*part11	*	*part10	*	*	*part9	*	*	*part8	*	*	*part7	*	*	*part6	*	*part5	*	*part4	*	*part3	*	*part2	*	*part1	*
*staff14	*	*	*staff13	*	*staff12	*	*staff11	*	*staff10	*	*	*staff9	*	*	*staff8	*	*	*staff7	*	*	*staff6	*	*staff5	*	*staff4	*	*staff3	*	*staff2	*	*staff1	*
*I"Organo	*	*	*I"Viola di Alto	*	*I"Violino= Secundo=	*	*I"Violino Primo.	*	*I"Basſo.	*	*	*I"Tenore	*	*	*I"Alto.	*	*	*I"Canto.	*	*	*I"Clarino 2.do in C	*	*I"Claryno Prymo in C	*	*I"Cornu Secundo in C.	*	*I"Corno Prymo in C.	*	*I"Oboe Secundo.	*	*I"Oboe. Primo.	*
*I'org	*	*	*I'vla	*	*I'vl II	*	*I'vl I	*	*I'B	*	*	*I'T	*	*	*I'A	*	*	*I'S	*	*	*I'clno II	*	*I'clno I	*	*I'cor II	*	*I'cor I	*	*I'ob II	*	*I'ob I	*
*ICklav	*	*	*ICstr	*	*ICstr	*	*ICstr	*	*ICvox	*	*	*ICvox	*	*	*ICvox	*	*	*ICvox	*	*	*ICbras	*	*ICbras	*	*ICbras	*	*ICbras	*	*ICww	*	*ICww	*
*Iorgan	*	*	*Iviola	*	*Ivioln	*	*Ivioln	*	*Ibass	*	*	*Itenor	*	*	*Ialto	*	*	*Isoprn	*	*	*Itromp	*	*Itromp	*	*Icor	*	*Icor	*	*Ioboe	*	*Ioboe	*
*IGcont	*	*	*	*	*	*	*	*	*IGcoro	*	*	*IGcoro	*	*	*IGcoro	*	*	*IGcoro	*	*	*	*	*	*	*	*	*	*	*	*	*	*
*	*	*	*mI"Viola	*	*mI"Violino II	*	*mI"Violino I	*	*mI"Basso	*	*	*	*	*	*mI"Alto	*	*	*mI"Soprano	*	*	*mI"Clarino II in C	*	*mI"Clarino I in C	*	*mI"Corno II in C	*	*mI"Corno I in C	*	*mI"Oboe II	*	*mI"Oboe I	*
*	*	*	*	*	*	*	*	*	*	*	*	*	*	*	*	*	*	*	*	*	*	*	*	*	*	*	*	*	*	*	*	*
*clefF4	*	*	*clefC3	*	*clefG2	*	*clefG2	*	*clefF4	*	*	*clefC4	*	*	*clefC3	*	*	*clefC1	*	*	*clefG2	*	*clefG2	*	*clefG2	*	*clefG2	*	*clefG2	*	*clefG2	*
*	*	*	*	*	*	*	*	*	*	*	*	*mclefGv2	*	*	*mclefG2	*	*	*mclefG2	*	*	*	*	*	*	*	*	*	*	*	*	*	*
*	*	*	*	*	*	*	*	*	*	*	*	*	*	*	*	*	*	*	*	*	*	*	*	*	*Trd0c0	*	*Trd0c0	*	*	*	*	*
*k[]	*	*	*k[]	*	*k[]	*	*k[]	*	*k[]	*	*	*k[]	*	*	*k[]	*	*	*k[]	*	*	*k[]	*	*k[]	*	*k[]	*	*k[]	*	*k[]	*	*k[]	*
*C:	*	*	*C:	*	*C:	*	*C:	*	*C:	*	*	*C:	*	*	*C:	*	*	*C:	*	*	*C:	*	*C:	*	*C:	*	*C:	*	*C:	*	*C:	*
*M3/4	*	*	*M3/4	*	*M3/4	*	*M3/4	*	*M3/4	*	*	*M3/4	*	*	*M3/4	*	*	*M3/4	*	*	*M3/4	*	*M3/4	*	*M3/4	*	*M3/4	*	*M3/4	*	*M3/4	*
=1	=1	=1	=1	=1	=1	=1	=1	=1	=1	=1	=1	=1	=1	=1	=1	=1	=1	=1	=1	=1	=1	=1	=1	=1	=1	=1	=1	=1	=1	=1	=1	=1
!!!OMD:
!!!OMD-mod: Adagio
!	!	!	!	!	!	!	!LO:MO:mod=*null:null	!	!	!	!	!	!	!	!	!	!	!	!	!	!	!	!	!	!	!	!	!	!	!	!	!
*tremolo	*	*	*tremolo	*	*tremolo	*	*2\right	*	*	*	*	*	*	*	*	*	*	*	*	*	*	*	*	*	*	*	*	*	*	*	*	*
!LO:MO:mod=*null:null	!	!	!LO:MO:mod=*null:null	!	!LO:MO:mod=*null:null	!	!	!	!LO:MO:mod=*null:null	!	!	!LO:MO:mod=*null:null	!	!	!LO:MO:mod=*null:null	!	!	!LO:MO:mod=*null:null	!	!	!	!	!LO:MO:mod=*null:null	!	!LO:MO:mod=*null:null	!	!LO:MO:mod=*null:null	!	!LO:MO:mod=*null:null	!	!LO:MO:mod=*null:null	!
*2\right	*	*	*2\right	*	*2\right	*	*tremolo	*	*2\right	*	*	*2\right	*	*	*2\right	*	*	*2\right	*	*	*	*	*2\right	*	*2\right	*	*2\right	*	*2\right	*	*2\right	*
!!LO:TX:t= :mod=Tutti
!LO:TX:a:B:t=Sanctus:mod=	!	!	!	!	!LO:TX:a:i:t=Tutti:mod=	!	!	!	!	!	!	!	!	!	!	!	!	!	!	!	!	!LO:DY:t= :mod=%s	!	!	!	!LO:DY:t= :mod=%s	!	!LO:DY:t= :mod=%s	!	!LO:DY:t= :mod=%s	!	!LO:DY:t= :mod=%s
!LO:TX:a:i:B:t=adagio:mod=	!	!	!LO:TX:a:B:t=Sanctus:mod=	!	!LO:TX:a:B:t=Sanctus:mod=	!	!LO:TX:a:B:t=Sanctus:mod=	!	!	!	!	!	!	!	!	!	!	!	!	!	!LO:TX:a:i:B:t=adagio:mod=	!LO:MO:mod=!LO&colon;DY&colon;ed=brack	!LO:TX:a:i:B:t=adagio&colon;:mod=	!LO:DY:a	!LO:TX:a:B:t=Sanctuſ:mod=	!LO:MO:mod=!LO&colon;DY&colon;ed=brack	!LO:TX:a:B:t=Sanctus:mod=	!LO:MO:mod=!LO&colon;DY&colon;ed=brack	!LO:TX:a:B:t=Sanctus:mod=	!LO:MO:mod=!LO&colon;DY&colon;ed=brack	!LO:TX:a:B:t=Sanctus:mod=	!LO:MO:mod=!LO&colon;DY&colon;ed=brack
!LO:TX:a:t=Tutti.:mod=	!	!	!LO:TX:a:B:t=Adagio:mod=	!	!LO:TX:a:B:t=Adagio:mod=	!	!LO:TX:a:B:t=Adagio:mod=	!	!LO:TX:a:B:t=Adagio:mod=	!	!	!	!	!	!LO:TX:a:B:t=Adagio:mod=	!	!	!	!	!	!LO:TX:a:B:t=Sanctus:mod=	!null	!LO:TX:a:B:t=Sanctus:mod=	!LO:DY:t=for:mod=&colon;:mod=	!LO:TX:a:i:B:t=adagio:mod=	!null	!LO:TX:a:i:B:t=adaio:mod=	!null	!LO:TX:a:i:B:t=adagio:mod=	!null	!LO:TX:a:i:B:t=adagio:mod=	!null
8C/L	.	.	8g\L	.	8e/L	.	8cc\L	.	2C/	San-	.	2e\	San-	.	2g\	San-	.	2cc\	San-	.	2.e/	f	2.cc\	f	2cc\	f	2ee\	f	2.e/	f	2.cc\	f
8C/	.	.	8g\	.	8e/	.	8cc\	.	.	.	.	.	.	.	.	.	.	.	.	.	.	.	.	.	.	.	.	.	.	.	.	.
8C/	.	.	8g\	.	8e/	.	8cc\	.	.	.	.	.	.	.	.	.	.	.	.	.	.	.	.	.	.	.	.	.	.	.	.	.
8C/	.	.	8g\	.	8e/	.	8cc\	.	.	.	.	.	.	.	.	.	.	.	.	.	.	.	.	.	.	.	.	.	.	.	.	.
!	!	!	!	!	!	!	!	!	!	!	!	!	!	!	!	!	!	!	!	!	!	!	!	!	!LO:TX:t=P:problem:4\right:mod=	!	!LO:TX:t=P:problem:4\right:mod=	!	!	!	!	!
8C/	.	.	8g\	.	8e/	.	8cc\	.	4C/	-ctus	.	4e\	-ctus	.	4g\	-ctus	.	4cc\	-ctus	.	.	.	.	.	4cc\	.	4ee\	.	.	.	.	.
8C/J	.	.	8g\J	.	8e/J	.	8cc\J	.	.	.	.	.	.	.	.	.	.	.	.	.	.	.	.	.	.	.	.	.	.	.	.	.
=2	=2	=2	=2	=2	=2	=2	=2	=2	=2	=2	=2	=2	=2	=2	=2	=2	=2	=2	=2	=2	=2	=2	=2	=2	=2	=2	=2	=2	=2	=2	=2	=2
*	*	*	*	*	*	*	*	*	*	*ij	*	*	*ij	*	*	*ij	*	*	*	*	*	*	*	*	*	*	*	*	*	*	*	*
!	!	!	!	!	!	!	!	!	!	!	!	!	!	!	!	!	!	!	!LO:MO:mod=San-	!	!	!	!	!	!	!	!	!	!	!	!	!
8D/L	7:6	.	8g\L	.	8f/L	.	8cc\L	.	4D/	San-	.	8e\L	San-	.	4g\	San-	.	8cc\L	san-	.	2.g/	.	2.g/	.	2dd\	.	2ff\	.	4f/	.	8cc\L	.
8D/	.	.	8g\	.	8f/	.	8b\J	.	.	.	.	8f\J	.	.	.	.	.	8b\J	.	.	.	.	.	.	.	.	.	.	.	.	8b\J	.
8D/	.	.	8g\	.	8f/	.	8b\L	.	2D/	-ctus	.	2f\	-ctus	.	2g\	-ctus	.	2b\	-ctus	.	.	.	.	.	.	.	.	.	2f/	.	2b\	.
8D/	.	.	8g\	.	8f/	.	8b\	.	.	.	.	.	.	.	.	.	.	.	.	.	.	.	.	.	.	.	.	.	.	.	.	.
8D/	.	.	8g\	.	8f/	.	8b\	.	.	.	.	.	.	.	.	.	.	.	.	.	.	.	.	.	4dd\	.	4ff\	.	.	.	.	.
*	*	*	*	*	*	*	*	*	*	*Xij	*	*	*Xij	*	*	*Xij	*	*	*	*	*	*	*	*	*	*	*	*	*	*	*	*
8D/J	.	.	8g\J	.	8f/J	.	8b\J	.	.	.	.	.	.	.	.	.	.	.	.	.	.	.	.	.	.	.	.	.	.	.	.	.
=3	=3	=3	=3	=3	=3	=3	=3	=3	=3	=3	=3	=3	=3	=3	=3	=3	=3	=3	=3	=3	=3	=3	=3	=3	=3	=3	=3	=3	=3	=3	=3	=3
!	!	!	!	!	!	!	!	!	!	!	!	!	!	!	!	!	!	!	!	!	!	!LO:DY:a	!	!	!	!	!	!	!	!	!	!
!	!	!	!	!	!	!	!	!	!	!	!	!	!	!	!	!	!	!	!	!	!	!LO:DY:t=for:mod=..	!	!	!	!	!	!	!	!	!	!
!	!	!	!	!	!	!	!	!	!	!	!	!	!	!	!	!	!	!	!	!	!	!LO:MO:mod= 	!	!	!	!	!	!	!	!	!	!
8GG/ 8GL	7	.	8d\L	.	8b\L	.	8ff\L	.	2.G\	San-	.	2.d\	San-	.	2.g\	San-	.	2.ff\	San-	.	2.g/	f	2.dd\	.	2.g/	.	2.dd\	.	2.dd\	.	2.ff\	.
8GG/ 8G	.	.	8d\	.	8b\	.	8ff\	.	.	.	.	.	.	.	.	.	.	.	.	.	.	.	.	.	.	.	.	.	.	.	.	.
8GG/ 8G	.	.	8d\	.	8b\	.	8ff\	.	.	.	.	.	.	.	.	.	.	.	.	.	.	.	.	.	.	.	.	.	.	.	.	.
8GG/ 8G	.	.	8d\	.	8b\	.	8ff\	.	.	.	.	.	.	.	.	.	.	.	.	.	.	.	.	.	.	.	.	.	.	.	.	.
8GG/ 8G	.	.	8d\	.	8b\	.	8ff\	.	.	.	.	.	.	.	.	.	.	.	.	.	.	.	.	.	.	.	.	.	.	.	.	.
8GG/ 8GJ	.	.	8d\J	.	8b\J	.	8ff\J	.	.	.	.	.	.	.	.	.	.	.	.	.	.	.	.	.	.	.	.	.	.	.	.	.
=4	=4	=4	=4	=4	=4	=4	=4	=4	=4	=4	=4	=4	=4	=4	=4	=4	=4	=4	=4	=4	=4	=4	=4	=4	=4	=4	=4	=4	=4	=4	=4	=4
!	!	!	!	!	!	!	!	!	!	!	!	!	!	!	!	!	!	!	!	!	!	!	!LO:TX:t=P:problem:8\right:mod=	!	!	!	!LO:TX:t=P:problem:8\right:mod=	!	!LO:TX:t=P:problem:8\right:mod=	!	!	!
8C/L	.	.	8d\L	.	8b\L	.	8ff\L	.	4c\	.	.	(8d\L	.	.	4g\	.	.	8ff\L	.	.	2g/	.	8dd\L	.	8g/L	.	8dd\L	.	8dd\L	.	8ff\L	.
8C/	.	.	8c\J	.	8cc\J	.	8ee\J	.	.	.	.	8c\J)	.	.	.	.	.	8ee\J	.	.	.	.	8cc\J	.	8cc/J	.	8ee\J	.	8cc\J	.	8ee\J	.
8C/	.	.	8c\L	.	8g/L	.	8ee\L	.	2C/	-ctus	.	2c\	-ctus	.	2g\	-ctus	.	2ee\	-ctus	.	.	.	2cc\	.	2cc\	.	2ee\	.	2cc\	.	2ee\	.
8C/	.	.	8c\	.	8g/	.	8ee\	.	.	.	.	.	.	.	.	.	.	.	.	.	.	.	.	.	.	.	.	.	.	.	.	.
8C/	.	.	8c\	.	8g/	.	8ee\	.	.	.	.	.	.	.	.	.	.	.	.	.	8g/L	.	.	.	.	.	.	.	.	.	.	.
8C/J	.	.	8c\J	.	8g/J	.	8ee\J	.	.	.	.	.	.	.	.	.	.	.	.	.	8e/J	.	.	.	.	.	.	.	.	.	.	.
!	!	!	!	!	!	!	!	!	!	!	!	!	!	!	!	!	!	!	!	!	!	!	!	!	!	!	!LO:LB:g=original	!	!	!	!	!
=5	=5	=5	=5	=5	=5	=5	=5	=5	=5	=5	=5	=5	=5	=5	=5	=5	=5	=5	=5	=5	=5	=5	=5	=5	=5	=5	=5	=5	=5	=5	=5	=5
*	*	*	*	*	*	*	*	*	*	*	*	*	*	*	*	*	*	*	*	*	*tremolo	*	*	*	*	*	*	*	*	*	*	*
*	*	*	*	*	*	*	*	*	*	*	*	*	*	*	*	*ij	*	*	*	*	*	*	*tremolo	*	*	*	*	*	*	*	*	*
8E\L	.	.	8e\L	.	8cc\L	.	8gg\L	.	4.E\	Do-	.	4.c\	Do-	.	2g\	San-	.	4.cc\	Do-	.	8c/L	.	8cc\L	.	2.c/	.	2.cc\	.	2.cc\	.	2.gg\	.
8E\	.	.	8e\	.	8cc\	.	8gg\	.	.	.	.	.	.	.	.	.	.	.	.	.	8c/	.	8cc\	.	.	.	.	.	.	.	.	.
8E\	.	.	8e\	.	8cc\	.	8gg\	.	.	.	.	.	.	.	.	.	.	.	.	.	8c/	.	8cc\	.	.	.	.	.	.	.	.	.
8E\	.	.	8e\	.	8cc\	.	8gg\	.	8E\	-mi-	.	8c\	-mi-	.	.	.	.	8cc\	-mi-	.	8c/	.	8cc\	.	.	.	.	.	.	.	.	.
8E\	.	.	8e\	.	8cc\	.	8gg\	.	4E\	-nus	.	4c\	-nus	.	4g\	-ctus	.	4cc\	-nus	.	8c/	.	8cc\	.	.	.	.	.	.	.	.	.
8E\J	.	.	8e\J	.	8cc\J	.	8gg\J	.	.	.	.	.	.	.	.	.	.	.	.	.	8c/J	.	8cc\J	.	.	.	.	.	.	.	.	.
*	*	*	*	*	*	*	*	*	*	*	*	*	*	*	*	*Xij	*	*	*	*	*	*	*	*	*	*	*	*	*	*	*	*
=6	=6	=6	=6	=6	=6	=6	=6	=6	=6	=6	=6	=6	=6	=6	=6	=6	=6	=6	=6	=6	=6	=6	=6	=6	=6	=6	=6	=6	=6	=6	=6	=6
8F\L	.	.	8f\L	.	8cc\L	.	8aa\L	.	2F\	De-	.	2c\	De-	.	4.a\	Do-	.	2cc\	De-	.	8c/L	.	8cc\L	.	2.c/	.	2.cc\	.	2.cc\	.	2.aa\	.
8F\	.	.	8f\	.	8cc\	.	8aa\	.	.	.	.	.	.	.	.	.	.	.	.	.	8c/	.	8cc\	.	.	.	.	.	.	.	.	.
8F\	.	.	8f\	.	8cc\	.	8aa\	.	.	.	.	.	.	.	.	.	.	.	.	.	8c/	.	8cc\	.	.	.	.	.	.	.	.	.
8F\	.	.	8f\	.	8cc\	.	8aa\	.	.	.	.	.	.	.	8a\	-mi-	.	.	.	.	8c/	.	8cc\	.	.	.	.	.	.	.	.	.
8F\	.	.	8f\	.	8cc\	.	8aa\	.	4F\	-us	.	4c\	-us	.	4a\	-nus	.	4cc\	-us	.	8c/	.	8cc\	.	.	.	.	.	.	.	.	.
8F\J	.	.	8f\J	.	8cc\J	.	8aa\J	.	.	.	.	.	.	.	.	.	.	.	.	.	8c/J	.	8cc\J	.	.	.	.	.	.	.	.	.
!	!	!	!	!	!	!	!	!	!	!	!	!LO:LB:g=original	!	!	!	!	!	!LO:LB:g=original	!	!	!	!	!	!	!	!	!	!	!	!	!	!
=7	=7	=7	=7	=7	=7	=7	=7	=7	=7	=7	=7	=7	=7	=7	=7	=7	=7	=7	=7	=7	=7	=7	=7	=7	=7	=7	=7	=7	=7	=7	=7	=7
!	!	!	!	!	!	!	!	!	!	!	!	!	!	!	!	!	!	!	!	!	!	!	!	!	!	!	!LO:TX:mod=:t=P:problem:takt 7 repetycja	!	!	!	!	!
!	!	!	!	!	!	!	!	!	!	!	!	!	!	!	!	!	!	!	!LO:MO:mod=Sa-	!	!	!	!	!	!	!	!LO:MO:mod=2.cc	!	!	!	!	!
8E\L	6_ -5_	.	8g\L	.	8cc\L	.	8bb-X\L	.	2E\	Sa-	.	2B-X\	Sa-	.	2.g\	De-	.	2cc\	sa-	.	8c/L	.	8cc\L	.	2.c/	.	2.cc\yy	.	2.cc\	.	2.bb-X\	.
8E\	.	.	8g\	.	8cc\	.	8bb-X\	.	.	.	.	.	.	.	.	.	.	.	.	.	8c/	.	8cc\	.	.	.	.	.	.	.	.	.
8E\	.	.	8g\	.	8cc\	.	8bb-X\	.	.	.	.	.	.	.	.	.	.	.	.	.	8c/	.	8cc\	.	.	.	.	.	.	.	.	.
8E\	.	.	8g\	.	8cc\	.	8bb-X\	.	.	.	.	.	.	.	.	.	.	.	.	.	8c/	.	8cc\	.	.	.	.	.	.	.	.	.
8E\	.	.	8g\	.	8cc\	.	8bb-X\	.	4E\	-ba-	.	4B-\	-ba-	.	.	.	.	4cc\	-ba-	.	8c/	.	8cc\	.	.	.	.	.	.	.	.	.
8E\J	.	.	8g\J	.	8cc\J	.	8bb-X\J	.	.	.	.	.	.	.	.	.	.	.	.	.	8c/J	.	8cc\J	.	.	.	.	.	.	.	.	.
*	*	*	*	*	*	*	*	*	*	*	*	*	*	*	*	*	*	*	*	*	*	*	*Xtremolo	*	*	*	*	*	*	*	*	*
*	*	*	*Xtremolo	*	*	*	*	*	*	*	*	*	*	*	*	*	*	*	*	*	*Xtremolo	*	*	*	*	*	*	*	*	*	*	*
!	!	!	!	!	!	!	!	!	!	!	!	!	!	!	!	!	!	!	!	!	!	!	!	!	!	!	!	!	!LO:LB:g=original	!	!	!
!	!	!	!	!	!	!	!	!	!	!	!	!	!	!	!	!	!	!	!	!	!	!	!LO:LB:g=original	!	!	!	!	!	!	!	!	!
=8	=8	=8	=8	=8	=8	=8	=8	=8	=8	=8	=8	=8	=8	=8	=8	=8	=8	=8	=8	=8	=8	=8	=8	=8	=8	=8	=8	=8	=8	=8	=8	=8
!	!	!	!	!	!	!	!	!	!	!	!	!LO:SIC:v:s=4B-\	!	!	!	!	!	!	!	!	!	!	!LO:TX:t=P:problem:4\right:mod=	!	!	!	!	!	!LO:TX:t=P:problem:4\right:mod=	!	!	!
!	!	!	!	!	!	!	!	!LO:DY:t=pia:mod=	!	!	!	!	!	!	!	!	!	!	!	!	!	!	!	!	!	!	!	!	!	!	!	!
4E\	X X	.	4g\	.	4cc\	.	8bb-\L	p	4E\	-oth	.	4B\	-oth	.	4g\	-us	.	4cc\	-oth	.	4c/	.	4cc\	.	4c/	.	4cc\	.	4gg\	.	4bb-X\	.
.	.	.	.	.	.	.	8gg\	.	.	.	.	.	.	.	.	.	.	.	.	.	.	.	.	.	.	.	.	.	.	.	.	.
4r	.	.	4r	.	4r	.	8ee\	.	4r	.	.	4r	.	.	4r	.	.	4r	.	.	4r	.	4r	.	4r	.	4r	.	4r	.	4r	.
.	.	.	.	.	.	.	8cc\	.	.	.	.	.	.	.	.	.	.	.	.	.	.	.	.	.	.	.	.	.	.	.	.	.
!	!	!LO:DY:a	!	!	!	!	!LO:SIC:v:s=8b-\	!	!	!	!	!	!	!	!	!	!	!	!	!	!	!	!	!	!	!	!	!	!	!	!	!
!	!	!LO:DY:t=pp&colon;	!	!	!	!	!	!	!	!	!	!	!	!	!	!	!	!	!	!	!	!	!	!	!	!	!	!	!	!	!	!
!	!	!LO:MO:mod= 	!	!	!	!	!	!	!	!	!	!	!	!	!	!	!	!	!	!	!	!	!	!	!	!	!	!	!	!	!	!
4r	.	pp	4r	.	4r	.	8b\	.	4r	.	.	4r	.	.	4r	.	.	4r	.	.	4r	.	4r	.	4r	.	4r	.	4r	.	4r	.
.	.	.	.	.	.	.	8g\J	.	.	.	.	.	.	.	.	.	.	.	.	.	.	.	.	.	.	.	.	.	.	.	.	.
!	!	!	!LO:LB:g=original	!	!	!	!LO:LB:g=original	!	!LO:LB:g=original	!	!	!	!	!	!LO:LB:g=original	!	!	!	!	!	!	!	!	!	!	!	!	!	!	!	!	!
=9	=9	=9	=9	=9	=9	=9	=9	=9	=9	=9	=9	=9	=9	=9	=9	=9	=9	=9	=9	=9	=9	=9	=9	=9	=9	=9	=9	=9	=9	=9	=9	=9
!	!	!	!	!	!	!LO:DY:a	!	!	!	!	!	!	!	!	!	!	!LO:DY:a	!	!	!LO:DY:a	!LO:TX:a:t=6.:mod=	!	!LO:TX:b:t=6:mod=.	!	!LO:TX:a:t=6.:mod=	!	!LO:TX:b:t=6:mod=	!	!	!LO:DY:a	!	!LO:DY:t= :mod=%s
!	!	!LO:DY:t= :mod=%s	!	!LO:DY:t=p&colon;:mod=	!	!LO:DY:t=p&colon;:mod=	!	!	!	!	!	!	!	!	!	!	!LO:DY:t=p&colon;:mod=	!	!	!LO:DY:t=p&colon;:mod=	!	!	!	!	!	!	!	!	!	!LO:DY:t=p.:mod=	!	!LO:MO:mod=!LO&colon;DY&colon;ed=brack
!	!	!null	!	!	!	!	!	!	!	!	!	!	!	!	!	!	!LO:MO:mod= 	!	!	!LO:MO:mod= 	!	!	!	!	!	!	!	!	!	!	!	!null
8C/L	-7 3	pp	8G/L	p	8B-X/L	p	(8e/L	.	4r	.	.	4r	.	.	4r	.	p	4r	.	p	0.r	.	0.r	.	0.r	.	0.r	.	2.b-X\	p	2.ee\	p
8C/	.	.	8G/J	.	8B-X/	.	8f/J)	.	.	.	.	.	.	.	.	.	.	.	.	.	.	.	.	.	.	.	.	.	.	.	.	.
*	*	*	*tremolo	*	*	*	*	*	*	*	*	*	*	*	*	*	*	*	*	*	*	*	*	*	*	*	*	*	*	*	*	*
!	!	!	!	!	!	!	!	!	!	!	!LO:DY:t= :mod=%s	!	!	!LO:DY:a	!	!	!	!	!	!	!	!	!	!	!	!	!	!	!	!	!	!
!	!	!	!	!	!	!	!	!	!	!	!LO:MO:mod=!LO&colon;DY&colon;ed=brack	!	!	!LO:DY:t=p&colon;:mod=	!	!	!LO:DY:t= :mod=%s	!	!	!LO:DY:t= :mod=%s	!	!	!	!	!	!	!	!	!	!	!	!
!	!	!	!	!	!	!	!LO:TX:t=P:problem: 4x staccato:mod=	!	!	!	!null	!	!	!	!	!	!null	!	!	!null	!	!	!	!	!	!	!	!	!	!	!	!
8C/	.	.	8G/L	.	8B-X/	.	8e'/L	.	4C/	San-	p	4B-X\	San-	p	4c/	San-	p	4e/	San-	p	.	.	.	.	.	.	.	.	.	.	.	.
8C/	.	.	8G/	.	8B-X/	.	8e'/	.	.	.	.	.	.	.	.	.	.	.	.	.	.	.	.	.	.	.	.	.	.	.	.	.
8C/	.	.	8G/	.	8B-X/	.	8e'/	.	4C/	-ctus	.	4B-\	-ctus	.	4c/	-ctus	.	4e/	-ctus	.	.	.	.	.	.	.	.	.	.	.	.	.
8C/J	.	.	8G/J	.	8B-X/J	.	8e'/J	.	.	.	.	.	.	.	.	.	.	.	.	.	.	.	.	.	.	.	.	.	.	.	.	.
!LO:LB:g=original	!	!	!	!	!	!	!	!	!	!	!	!	!	!	!	!	!	!	!	!	!	!	!	!	!	!	!	!	!	!	!	!
=10	=10	=10	=10	=10	=10	=10	=10	=10	=10	=10	=10	=10	=10	=10	=10	=10	=10	=10	=10	=10	=10	=10	=10	=10	=10	=10	=10	=10	=10	=10	=10	=10
8C#X/L	-7 5	.	8G/L	.	8A/L	.	(8e/L	.	4.C#X/	Do-	.	4.A\	Do-	.	4.c#X/	Do-	.	4.e/	Do-	.	.	.	.	.	.	.	.	.	2.a/	.	2.ee\	.
8C#X/	.	.	8G/	.	8A/	.	8f/J)	.	.	.	.	.	.	.	.	.	.	.	.	.	.	.	.	.	.	.	.	.	.	.	.	.
!	!	!	!	!	!	!	!LO:TX:t=P:problem: 4x staccato:mod=	!	!	!	!	!	!	!	!	!	!	!	!	!	!	!	!	!	!	!	!	!	!	!	!	!
8C#X/	.	.	8G/	.	8A/	.	8e'/L	.	.	.	.	.	.	.	.	.	.	.	.	.	.	.	.	.	.	.	.	.	.	.	.	.
8C#X/	.	.	8G/	.	8A/	.	8e'/	.	8C#/	-mi-	.	8A\	-mi-	.	8c#/	-mi-	.	8e/	-mi-	.	.	.	.	.	.	.	.	.	.	.	.	.
8C#X/	.	.	8G/	.	8A/	.	8e'/	.	4C#/	-nus	.	4A\	-nus	.	4c#/	-nus	.	4e/	-nus	.	.	.	.	.	.	.	.	.	.	.	.	.
8C#X/J	.	.	8G/J	.	8A/J	.	8e'/J	.	.	.	.	.	.	.	.	.	.	.	.	.	.	.	.	.	.	.	.	.	.	.	.	.
!	!	!	!	!	!LO:LB:g=original	!	!	!	!	!	!	!	!	!	!	!	!	!	!	!	!	!	!	!	!	!	!	!	!	!	!	!
=11	=11	=11	=11	=11	=11	=11	=11	=11	=11	=11	=11	=11	=11	=11	=11	=11	=11	=11	=11	=11	=11	=11	=11	=11	=11	=11	=11	=11	=11	=11	=11	=11
8D\L	n	.	8A/L	.	8A/L	.	8f/L	.	2D/	De-	.	2A\	De-	.	2d\	De-	.	2f/	De-	.	.	.	.	.	.	.	.	.	2.a/	.	2.ff\	.
8D\	.	.	8A/	.	8A/	.	8g/J	.	.	.	.	.	.	.	.	.	.	.	.	.	.	.	.	.	.	.	.	.	.	.	.	.
8D\	.	.	8A/	.	8A/	.	8f/L	.	.	.	.	.	.	.	.	.	.	.	.	.	.	.	.	.	.	.	.	.	.	.	.	.
8D\	.	.	8A/	.	8A/	.	8f/	.	.	.	.	.	.	.	.	.	.	.	.	.	.	.	.	.	.	.	.	.	.	.	.	.
8D\	.	.	8A/	.	8A/	.	8f/	.	4D/	-us	.	4A\	-us	.	4d\	-us	.	4f/	-us	.	.	.	.	.	.	.	.	.	.	.	.	.
8D\J	.	.	8A/J	.	8A/J	.	8f/J	.	.	.	.	.	.	.	.	.	.	.	.	.	.	.	.	.	.	.	.	.	.	.	.	.
!	!	!	!	!	!	!	!	!	!	!	!	!	!	!	!	!	!	!	!	!	!	!	!	!	!	!	!	!	!	!	!LO:LB:g=original	!
=12	=12	=12	=12	=12	=12	=12	=12	=12	=12	=12	=12	=12	=12	=12	=12	=12	=12	=12	=12	=12	=12	=12	=12	=12	=12	=12	=12	=12	=12	=12	=12	=12
8D\L	7 #	.	8A/L	.	8c/L	.	8f#X/L	.	4.D\	Do-	.	4.A\	Do-	.	4.cn/	Do-	.	4.f#X/	Do-	.	.	.	.	.	.	.	.	.	2.cc\	.	2.ff#X\	.
8D\	.	.	8A/	.	8c/	.	8g/J	.	.	.	.	.	.	.	.	.	.	.	.	.	.	.	.	.	.	.	.	.	.	.	.	.
8D\	.	.	8A/	.	8c/	.	8f#/L	.	.	.	.	.	.	.	.	.	.	.	.	.	.	.	.	.	.	.	.	.	.	.	.	.
8D\	.	.	8A/	.	8c/	.	8f#/	.	8D\	-mi-	.	8A\	-mi-	.	8c/	-mi-	.	8f#/	-mi-	.	.	.	.	.	.	.	.	.	.	.	.	.
8D\	.	.	8A/	.	8c/	.	8f#/	.	4D\	-nus	.	4A\	-nus	.	4c/	-nus	.	4f#/	-nus	.	.	.	.	.	.	.	.	.	.	.	.	.
8D\J	.	.	8A/J	.	8c/J	.	8f#/J	.	.	.	.	.	.	.	.	.	.	.	.	.	.	.	.	.	.	.	.	.	.	.	.	.
!	!	!	!	!	!	!	!	!	!	!	!	!LO:LB:g=original	!	!	!	!	!	!	!	!	!	!	!	!	!	!	!	!	!	!	!	!
=13	=13	=13	=13	=13	=13	=13	=13	=13	=13	=13	=13	=13	=13	=13	=13	=13	=13	=13	=13	=13	=13	=13	=13	=13	=13	=13	=13	=13	=13	=13	=13	=13
!	!	!	!	!	!	!	!	!	!	!	!	!	!	!	!	!	!	!	!	!	!	!	!	!	!	!	!	!	!	!	!	!
!	!	!	!	!	!	!	!	!	!	!	!	!	!	!	!	!	!	!	!	!	!	!	!	!	!	!	!	!	!	!	!	!
!	!	!	!	!	!	!	!	!	!	!	!	!	!	!	!	!	!	!	!	!	!	!	!	!	!	!	!	!	!	!	!	!
!	!	!	!	!	!	!	!	!	!	!	!	!	!	!	!	!	!	!	!	!	!	!	!	!	!	!	!	!	!	!	!	!
!	!	!	!	!	!	!	!	!	!	!	!	!	!	!	!	!	!	!	!	!	!	!	!	!	!	!	!	!	!	!	!	!
8D\L	6 4	.	8G/L	.	8Bn/L	.	8g/L	.	2D\	De-	.	2Bn\	De-	.	2B/	De-	.	2g/	De-	.	1.r	.	1.r	.	1.r	.	1.r	.	2.bn\	.	2.gg\	.
8D\	.	.	8d\J	.	8Bn/	.	8a/J	.	.	.	.	.	.	.	.	.	.	.	.	.	.	.	.	.	.	.	.	.	.	.	.	.
8D\	.	.	8d\L	.	8Bn/	.	8g/L	.	.	.	.	.	.	.	.	.	.	.	.	.	.	.	.	.	.	.	.	.	.	.	.	.
8D\	.	.	8d\	.	8Bn/	.	8g/	.	.	.	.	.	.	.	.	.	.	.	.	.	.	.	.	.	.	.	.	.	.	.	.	.
8D\	.	.	8d\	.	8Bn/	.	8g/	.	4D\	-us	.	4B\	-us	.	4d\	-us	.	4g/	-us	.	.	.	.	.	.	.	.	.	.	.	.	.
8D\J	.	.	8d\J	.	8Bn/J	.	8g/J	.	.	.	.	.	.	.	.	.	.	.	.	.	.	.	.	.	.	.	.	.	.	.	.	.
!	!	!	!	!	!	!	!	!	!	!	!	!	!	!	!	!	!	!LO:LB:g=original	!	!	!	!	!	!	!	!	!	!	!	!	!	!
=14	=14	=14	=14	=14	=14	=14	=14	=14	=14	=14	=14	=14	=14	=14	=14	=14	=14	=14	=14	=14	=14	=14	=14	=14	=14	=14	=14	=14	=14	=14	=14	=14
!	!	!	!	!	!	!	!	!	!	!	!	!	!	!	!	!LO:MO:mod=Sa-	!	!	!LO:MO:mod=Sa-	!	!	!	!	!	!	!	!	!	!	!	!	!
8D\L	7 #	.	8A/L	.	8f#X/L	.	8cc\L	.	2D\	Sa-	.	2A\	Sa-	.	2f#X\	sa-	.	2cc\	sa-	.	.	.	.	.	.	.	.	.	4r	.	4r	.
8D\	.	.	8A/	.	8f#X/	.	8dd\J	.	.	.	.	.	.	.	.	.	.	.	.	.	.	.	.	.	.	.	.	.	.	.	.	.
8D\	.	.	8A/	.	8f#X/	.	8cc\L	.	.	.	.	.	.	.	.	.	.	.	.	.	.	.	.	.	.	.	.	.	4aa\	.	4ccc\	.
8D\	.	.	8A/	.	8f#X/	.	8cc\	.	.	.	.	.	.	.	.	.	.	.	.	.	.	.	.	.	.	.	.	.	.	.	.	.
8D\	.	.	8A/	.	8f#X/	.	8cc\	.	4D\	-ba-	.	4A\	-ba-	.	4f#\	-ba-	.	4cc\	-ba-	.	.	.	.	.	.	.	.	.	4aa\	.	4ccc\	.
8D\J	.	.	8A/J	.	8f#X/J	.	8cc\J	.	.	.	.	.	.	.	.	.	.	.	.	.	.	.	.	.	.	.	.	.	.	.	.	.
=15	=15	=15	=15	=15	=15	=15	=15	=15	=15	=15	=15	=15	=15	=15	=15	=15	=15	=15	=15	=15	=15	=15	=15	=15	=15	=15	=15	=15	=15	=15	=15	=15
!LO:TX:a:t=Tutti.	!	!	!	!LO:DY:t= :mod=%s	!	!	!	!	!	!	!	!	!	!	!	!	!	!	!	!LO:DY:a	!	!	!	!LO:DY:t= :mod=%s	!	!LO:DY:t= :mod=%s	!	!LO:DY:t= :mod=%s	!	!	!	!
!	!	!LO:DY:t= :mod=%s	!	!LO:MO:mod=!LO&colon;DY&colon;ed=brack	!	!	!	!	!	!	!	!	!	!	!	!	!	!	!	!LO:DY:t=for:mod= 	!	!	!	!LO:MO:mod=!LO&colon;DY&colon;ed=brack	!	!LO:MO:mod=!LO&colon;DY&colon;ed=brack	!	!LO:MO:mod=!LO&colon;DY&colon;ed=brack	!	!	!	!
!	!	!null	!	!null	!	!LO:DY:t=ffor:mod=f	!	!LO:DY:t=for:mod=	!	!	!	!	!	!	!	!	!	!	!	!	!	!	!	!null	!	!null	!	!null	!	!	!	!
8G\L	.	f	8G/	f	8g/	ff	8b\	f	4G\	-oth	.	4G/	-oth	.	4g\	-oth	.	4b\	-oth	f	2.G/	.	2.g/	f	2.g/	f	2dd\	f	4gg\	.	4ddd\	.
8GG/	.	.	4g\	.	4d/	.	4b\	.	.	.	.	.	.	.	.	.	.	.	.	.	.	.	.	.	.	.	.	.	.	.	.	.
!	!	!	!	!	!	!	!	!	!	!	!LO:DY:a	!	!	!LO:DY:a	!	!	!LO:DY:a	!	!	!	!	!	!	!	!	!	!	!	!	!LO:DY:a	!	!LO:DY:t= :mod=%s
!	!	!	!	!	!	!	!	!	!	!	!LO:DY:t=for:mod=	!	!	!LO:DY:t=for:mod=	!	!	!LO:DY:t=for:mod=	!	!	!LO:DY:t= :mod=%s	!	!	!	!	!	!	!	!	!	!LO:DY:t=for:mod=	!	!LO:MO:mod=!LO&colon;DY&colon;ed=brack
!	!	!	!	!	!	!	!	!	!	!	!	!	!	!	!	!	!	!	!	!null	!	!	!	!	!	!	!	!	!	!	!	!null
8BB/	.	.	.	.	.	.	.	.	4G\	San-	f	4d\	San-	f	4g\	San-	f	4b\	San-	f	.	.	.	.	.	.	.	.	4b\	f	4dd\	f
8D/J	.	.	4g\	.	4d/	.	4b\	.	.	.	.	.	.	.	.	.	.	.	.	.	.	.	.	.	.	.	.	.	.	.	.	.
!	!	!LO:DY:a	!	!	!	!	!	!	!	!	!	!	!	!	!	!	!	!	!	!	!	!	!	!	!	!	!	!	!	!	!	!
!	!	!LO:DY:t=forte:mod= 	!	!	!	!	!	!	!	!	!	!	!	!	!	!	!	!	!	!	!	!	!	!	!	!	!	!	!	!	!	!
8G\L	.	f	.	.	.	.	.	.	4G\	-ctus	.	4d\	-ctus	.	4g\	-ctus	.	4b\	-ctus	.	.	.	.	.	.	.	4dd\	.	4b\	.	4dd\	.
8D\J	.	.	8g\	.	8d/	.	[8b\	.	.	.	.	.	.	.	.	.	.	.	.	.	.	.	.	.	.	.	.	.	.	.	.	.
!	!	!	!	!	!	!	!	!	!	!	!	!	!	!	!LO:LB:g=original	!	!	!	!	!	!	!	!	!	!	!	!	!	!	!	!	!
!	!	!	!	!	!	!	!	!	!	!	!	!	!	!	!	!	!	!	!	!	!	!	!	!	!LO:LB:g=original	!	!	!	!	!	!	!
=16	=16	=16	=16	=16	=16	=16	=16	=16	=16	=16	=16	=16	=16	=16	=16	=16	=16	=16	=16	=16	=16	=16	=16	=16	=16	=16	=16	=16	=16	=16	=16	=16
8B\L	6_	.	8g\	.	8d/	.	8b\]	.	4.G\	Do-	.	4.d\	Do-	.	4.g\	Do-	.	4.b\	Do-	.	2.G/	.	2.g/	.	2.g/	.	2.dd\	.	2.b\	.	2.dd\	.
8G\	.	.	4g\	.	4d/	.	4b\	.	.	.	.	.	.	.	.	.	.	.	.	.	.	.	.	.	.	.	.	.	.	.	.	.
8D\	.	.	.	.	.	.	.	.	.	.	.	.	.	.	.	.	.	.	.	.	.	.	.	.	.	.	.	.	.	.	.	.
8G\J	.	.	4g\	.	4d/	.	4b\	.	8G\	-mi-	.	8d\	-mi-	.	8g\	-mi-	.	8b\	-mi-	.	.	.	.	.	.	.	.	.	.	.	.	.
8BB/L	.	.	.	.	.	.	.	.	4G\	-nus	.	4d\	-nus	.	4g\	-nus	.	4b\	-nus	.	.	.	.	.	.	.	.	.	.	.	.	.
8D/J	.	.	8g\	.	8d/	.	8b\	.	.	.	.	.	.	.	.	.	.	.	.	.	.	.	.	.	.	.	.	.	.	.	.	.
!	!	!	!	!	!	!	!	!	!LO:LB:g=original	!	!	!	!	!	!	!	!	!	!	!	!	!	!	!	!	!	!	!	!	!	!	!
=17	=17	=17	=17	=17	=17	=17	=17	=17	=17	=17	=17	=17	=17	=17	=17	=17	=17	=17	=17	=17	=17	=17	=17	=17	=17	=17	=17	=17	=17	=17	=17	=17
8GG/L	6_ 4	.	8g\	.	8e/	.	8cc\	.	2G\	De-	.	2e\	De-	.	2g\	De-	.	2cc\	De-	.	2.e/	.	2.cc\	.	2cc\	.	2ee\	.	2.cc\	.	2.ee\	.
8C/	.	.	4g\	.	4e/	.	4cc\	.	.	.	.	.	.	.	.	.	.	.	.	.	.	.	.	.	.	.	.	.	.	.	.	.
8E/	.	.	.	.	.	.	.	.	.	.	.	.	.	.	.	.	.	.	.	.	.	.	.	.	.	.	.	.	.	.	.	.
8G/J	.	.	4g\	.	4e/	.	4cc\	.	.	.	.	.	.	.	.	.	.	.	.	.	.	.	.	.	.	.	.	.	.	.	.	.
8c\L	.	.	.	.	.	.	.	.	4G\	-us	.	4e\	-us	.	4g\	-us	.	4cc\	-us	.	.	.	.	.	4cc\	.	4ee\	.	.	.	.	.
8G\J	.	.	8g\	.	8e/	.	[8cc\	.	.	.	.	.	.	.	.	.	.	.	.	.	.	.	.	.	.	.	.	.	.	.	.	.
!	!	!	!LO:LB:g=original	!	!	!	!LO:LB:g=original	!	!	!	!	!	!	!	!	!	!	!	!	!	!	!	!	!	!	!	!	!	!	!	!	!
=18	=18	=18	=18	=18	=18	=18	=18	=18	=18	=18	=18	=18	=18	=18	=18	=18	=18	=18	=18	=18	=18	=18	=18	=18	=18	=18	=18	=18	=18	=18	=18	=18
!	!	!	!	!	!	!	!LO:TX:t=P:problem:ucięty skan:mod=	!	!	!	!	!	!	!	!	!	!	!	!LO:MO:mod=Sa-	!	!	!	!	!	!	!	!	!	!	!	!	!
!	!	!	!	!	!	!	!LO:MO:mod=8cc]	!	!	!	!	!	!	!	!	!	!	!	!	!	!	!	!	!	!	!	!	!	!	!	!	!
8e\L	.	.	8g\	.	8e/	.	8cc\]yy	.	2G\	Sa-	.	2e\	Sa-	.	2g\	Sa-	.	2cc\	sa-	.	2.e/	.	2.cc\	.	2.cc\	.	2.ee\	.	2.cc\	.	2.ee\	.
8c\	.	.	4g\	.	4e/	.	4cc\	.	.	.	.	.	.	.	.	.	.	.	.	.	.	.	.	.	.	.	.	.	.	.	.	.
8G\	.	.	.	.	.	.	.	.	.	.	.	.	.	.	.	.	.	.	.	.	.	.	.	.	.	.	.	.	.	.	.	.
8E\	.	.	4g\	.	4e/	.	4cc\	.	.	.	.	.	.	.	.	.	.	.	.	.	.	.	.	.	.	.	.	.	.	.	.	.
8C\	.	.	.	.	.	.	.	.	4G\	-ba-	.	4e\	-ba-	.	4g\	-ba-	.	4cc\	-ba-	.	.	.	.	.	.	.	.	.	.	.	.	.
8E\J	.	.	8g\	.	8e/	.	8cc\	.	.	.	.	.	.	.	.	.	.	.	.	.	.	.	.	.	.	.	.	.	.	.	.	.
!	!	!	!	!	!	!	!	!	!	!	!	!LO:LB:g=original	!	!	!	!	!	!	!	!	!	!	!	!	!	!	!	!	!LO:LB:g=original	!	!	!
=19	=19	=19	=19	=19	=19	=19	=19	=19	=19	=19	=19	=19	=19	=19	=19	=19	=19	=19	=19	=19	=19	=19	=19	=19	=19	=19	=19	=19	=19	=19	=19	=19
8GG/L	5_ 3	.	8g\	.	8b\	.	8dd\	.	4G\	-oth	.	4B\	-oth	.	4g\	-oth	.	4dd\	-oth	.	2.g/	.	2.dd\	.	2.dd\	.	2.ff\	.	2.dd\	.	2.ff\	.
8BB/	.	.	4g\	.	4b\	.	4dd\	.	.	.	.	.	.	.	.	.	.	.	.	.	.	.	.	.	.	.	.	.	.	.	.	.
8D/	.	.	.	.	.	.	.	.	4G\	Do-	.	4B\	Do-	.	4g\	Do-	.	4dd\	Do-	.	.	.	.	.	.	.	.	.	.	.	.	.
8G/J	.	.	4g\	.	4b\	.	4dd\	.	.	.	.	.	.	.	.	.	.	.	.	.	.	.	.	.	.	.	.	.	.	.	.	.
8B\L	.	.	.	.	.	.	.	.	8G\	-mi-	.	8B\	-mi-	.	8g\	-mi-	.	8dd\	-mi-	.	.	.	.	.	.	.	.	.	.	.	.	.
8d\J	.	.	8g\	.	8b\	.	8dd\	.	8G\	-nus	.	8B\	-nus	.	8g\	-nus	.	8dd\	-nus	.	.	.	.	.	.	.	.	.	.	.	.	.
!LO:LB:g=original	!	!	!	!	!	!	!	!	!	!	!	!	!	!	!	!	!	!LO:LB:g=original	!	!	!LO:LB:g=original	!	!	!	!	!	!	!	!	!	!	!
=20	=20	=20	=20	=20	=20	=20	=20	=20	=20	=20	=20	=20	=20	=20	=20	=20	=20	=20	=20	=20	=20	=20	=20	=20	=20	=20	=20	=20	=20	=20	=20	=20
!	!	!	!	!	!	!	!	!	!	!	!	!	!	!	!	!	!	!	!	!	!	!	!	!	!	!	!	!	!	!	!	!
*	*	*	*	*	*	*	*	*	*	*	*	*	*	*	*	*	*	*	*	*	*2\right	*	*	*	*	*	*	*	*	*	*	*
8GG/L	6_ 4	.	8g\	.	8cc\	.	8ee\	.	2G\	De-	.	2c\	De-	.	2g\	De-	.	2ee\	De-	.	2.cc\	.	2.ee\	.	2.cc\	.	2.ee\	.	2.cc\	.	2.ee\	.
8C/J	.	.	4g\	.	4cc\	.	4ee\	.	.	.	.	.	.	.	.	.	.	.	.	.	.	.	.	.	.	.	.	.	.	.	.	.
8E/L	.	.	.	.	.	.	.	.	.	.	.	.	.	.	.	.	.	.	.	.	.	.	.	.	.	.	.	.	.	.	.	.
8G/	.	.	4g\	.	4cc\	.	4ee\	.	.	.	.	.	.	.	.	.	.	.	.	.	.	.	.	.	.	.	.	.	.	.	.	.
8c/	.	.	.	.	.	.	.	.	4G\	-us	.	4c\	-us	.	4g\	-us	.	4ee\	-us	.	.	.	.	.	.	.	.	.	.	.	.	.
8e/J	.	.	8g\	.	8cc\	.	8ee\	.	.	.	.	.	.	.	.	.	.	.	.	.	.	.	.	.	.	.	.	.	.	.	.	.
=21	=21	=21	=21	=21	=21	=21	=21	=21	=21	=21	=21	=21	=21	=21	=21	=21	=21	=21	=21	=21	=21	=21	=21	=21	=21	=21	=21	=21	=21	=21	=21	=21
!LO:TX:t=P:problem:mixed beam:mod=	!	!	!	!	!	!	!	!	!	!	!	!	!	!	!	!	!	!	!	!	!	!	!	!	!	!	!	!	!	!	!	!
8A\L	6|_	.	8d\	.	8cc\	.	8ff#X\	.	2A\	Sa-	.	2d\	Sa-	.	2f#X\	Sa-	.	2cc\	Sa-	.	4dd\	.	4dd\	.	4dd\	.	4dd\	.	4cc\	.	4ff#X\	.
8D\	.	.	4d\	.	4cc\	.	4ff#\	.	.	.	.	.	.	.	.	.	.	.	.	.	.	.	.	.	.	.	.	.	.	.	.	.
8F#X\	.	.	.	.	.	.	.	.	.	.	.	.	.	.	.	.	.	.	.	.	4dd\	.	4dd\	.	4dd\	.	4dd\	.	4cc\	.	4ff#\	.
8A\	.	.	4d\	.	4cc\	.	4ff#\	.	.	.	.	.	.	.	.	.	.	.	.	.	.	.	.	.	.	.	.	.	.	.	.	.
8d\	.	.	.	.	.	.	.	.	4A\	-ba-	.	4d\	-ba-	.	4f#\	-ba-	.	4cc\	-ba-	.	4dd\	.	4dd\	.	4dd\	.	4dd\	.	4cc\	.	4ff#\	.
8D/J	x	.	8d\	.	8cc\	.	8ff#\	.	.	.	.	.	.	.	.	.	.	.	.	.	.	.	.	.	.	.	.	.	.	.	.	.
!	!	!	!	!	!LO:LB:g=original	!	!	!	!	!	!	!	!	!	!	!	!	!	!	!	!	!	!	!	!	!	!	!	!	!	!	!
=22	=22	=22	=22	=22	=22	=22	=22	=22	=22	=22	=22	=22	=22	=22	=22	=22	=22	=22	=22	=22	=22	=22	=22	=22	=22	=22	=22	=22	=22	=22	=22	=22
*	*	*	*	*	*	*	*Xtremolo	*	*	*	*	*	*	*	*	*	*	*	*	*	*	*	*	*	*	*	*	*	*	*	*	*
4G\	.	.	4d\	.	4b\	.	8gg\L	.	4G\	-oth	.	4d\	-oth.	.	4g\	-oth.	.	4b\	-oth	.	4g/	.	4dd\	.	4g/	.	4dd\	.	4b\	.	4gg\	.
.	.	.	.	.	.	.	8gg\	.	.	.	.	.	.	.	.	.	.	.	.	.	.	.	.	.	.	.	.	.	.	.	.	.
4r	.	.	4r	.	4r	.	8dd\	.	4r	.	.	4r	.	.	4r	.	.	4r	.	.	4r	.	4r	.	4r	.	4r	.	4r	.	4r	.
.	.	.	.	.	.	.	8b\J	.	.	.	.	.	.	.	.	.	.	.	.	.	.	.	.	.	.	.	.	.	.	.	.	.
4r	.	.	4r	.	4r	.	8g/L	.	4r	.	.	4r	.	.	4r	.	.	4r	.	.	4r	.	4r	.	4r	.	4r	.	4r	.	4r	.
.	.	.	.	.	.	.	8d/J	.	.	.	.	.	.	.	.	.	.	.	.	.	.	.	.	.	.	.	.	.	.	.	.	.
!	!	!	!	!	!	!	!	!	!	!	!	!	!	!	!LO:LB:g=original	!	!	!	!	!	!	!	!	!	!	!	!	!	!	!	!	!
=23	=23	=23	=23	=23	=23	=23	=23	=23	=23	=23	=23	=23	=23	=23	=23	=23	=23	=23	=23	=23	=23	=23	=23	=23	=23	=23	=23	=23	=23	=23	=23	=23
!	!	!	!	!	!	!	!	!	!	!	!	!	!	!	!	!	!	!	!	!	!	!	!	!	!	!	!LO:SIC:v:s=4G/	!	!	!	!	!
4GG/	.	.	4G/	.	4G/	.	4G/	.	4r	.	.	4r	.	.	4r	.	.	4r	.	.	4g/	.	4g/	.	4g/	.	4a/	.	4r	.	4r	.
!	!	!	!	!	!	!	!	!	!	!	!	!	!	!	!	!	!	!	!	!	!	!	!	!	!	!	!	!	!	!LO:DY:a	!	!LO:DY:t=p.:mod=
!	!	!	!	!	!	!	!	!	!	!	!	!	!	!	!	!	!	!	!	!	!	!	!	!	!	!	!	!	!	!LO:DY:t=p&colon;:mod=	!	!
4r	.	.	4r	.	4r	.	4r	.	4G\	Do-	.	4B\	Do-	.	4g\	Do-	.	4dd\	Do-	.	4r	.	4r	.	4r	.	4r	.	4b\	p	4dd\	p
4r	.	.	4r	.	4r	.	4r	.	8G\	-mi-	.	8B\	-mi-	.	8g\	-mi-	.	8dd\	-mi-	.	4r	.	4r	.	4r	.	4r	.	4b\	.	4dd\	.
.	.	.	.	.	.	.	.	.	8G\	-nus	.	8B\	-nus	.	8g\	-nus	.	8dd\	-nus	.	.	.	.	.	.	.	.	.	.	.	.	.
!	!	!	!	!	!	!	!	!	!LO:LB:g=original	!	!	!	!	!	!	!	!	!	!	!	!	!	!	!	!	!	!	!	!	!	!	!
=24	=24	=24	=24	=24	=24	=24	=24	=24	=24	=24	=24	=24	=24	=24	=24	=24	=24	=24	=24	=24	=24	=24	=24	=24	=24	=24	=24	=24	=24	=24	=24	=24
!LO:TX:a:mod=:t=2	!	!	!LO:TX:a:mod=:t=2.	!	!LO:TX:a:mod=:t=2	!	!	!	!	!	!	!	!	!	!	!	!	!	!	!	!LO:TX:a:mod=:t=5.	!	!LO:TX:a:mod=:t=5	!	!LO:TX:a:mod=:t=2.	!	!LO:TX:a:mod=:t=2:mod=	!	!	!	!	!
1.r	.	.	1.r	.	1.r	.	1.r	.	2G\	De-	.	2B\	De-	.	2g\	De-	.	2dd\	De-	.	0.r	.	0.r	.	1.r	.	1.r	.	2b\	.	2dd\	.
.	.	.	.	.	.	.	.	.	4G\	-us	.	4B\	-us	.	4g\	-us	.	4gg\	-us	.	.	.	.	.	.	.	.	.	4b\	.	4gg\	.
!	!	!	!	!	!	!	!	!	!	!	!	!LO:LB:g=original	!	!	!	!	!	!	!	!	!	!	!	!	!	!	!	!	!	!	!	!
=25	=25	=25	=25	=25	=25	=25	=25	=25	=25	=25	=25	=25	=25	=25	=25	=25	=25	=25	=25	=25	=25	=25	=25	=25	=25	=25	=25	=25	=25	=25	=25	=25
.	.	.	.	.	.	.	.	.	2c\	Sa-	.	2c\	Sa-	.	2g\	Sa-	.	2ee\	Sa-	.	.	.	.	.	.	.	.	.	2cc\	.	2ee\	.
.	.	.	.	.	.	.	.	.	4C/	-ba-	.	4c\	-ba-	.	4g\	-ba-	.	4ee\	-ba-	.	.	.	.	.	.	.	.	.	4cc\	.	4ee\	.
!	!	!	!	!	!	!	!	!	!	!	!	!	!	!	!	!	!	!	!	!	!	!	!	!	!	!	!	!	!	!	!LO:LB:g=original	!
=26	=26	=26	=26	=26	=26	=26	=26	=26	=26	=26	=26	=26	=26	=26	=26	=26	=26	=26	=26	=26	=26	=26	=26	=26	=26	=26	=26	=26	=26	=26	=26	=26
*	*	*	*	*	*Xtremolo	*	*	*	*	*	*	*	*	*	*	*	*	*	*	*	*	*	*	*	*	*	*	*	*	*	*	*
!LO:TX:a:i:t=pedale	!	!	!	!	!	!	!	!	!	!	!	!	!	!	!	!	!	!	!	!	!	!	!	!	!	!	!	!	!	!	!	!LO:DY:t= :mod=%s
!	!	!LO:DY:b:t=pia.	!	!LO:DY:t=p.:mod=	!	!LO:DY:t=pp&colon;:mod= 	!	!	!	!	!	!	!	!	!	!	!	!	!	!	!	!	!	!	!	!	!	!	!	!	!	!LO:MO:mod=!LO&colon;DY&colon;ed=brack
!	!	!	!	!	!	!	!	!	!	!	!	!	!	!	!	!	!	!	!	!	!	!	!	!	!	!	!	!	!	!	!	!null
8GG/	.	p	8G/	p	8r	pp	8r	.	4G\	-oth.	.	4B\	-oth	.	4g\	-oth	.	4dd\	-oth.	.	.	.	.	.	4r	.	4r	.	4b\	.	8dd|\L	pp
!	!	!	!	!	!	!LO:DY:t= :mod=%s	!	!	!	!	!	!	!	!	!	!	!	!	!	!	!	!	!	!	!	!	!	!	!	!	!	!
!	!	!	!	!	!	!null	!	!LO:DY:t=pia:mod=	!	!	!	!	!	!	!	!	!	!	!	!	!	!	!	!	!	!	!	!	!	!	!	!
8r	.	.	8r	.	8B/L	p	8d/L	p	.	.	.	.	.	.	.	.	.	.	.	.	.	.	.	.	.	.	.	.	.	.	8dd|\	.
!	!	!	!	!	!	!	!	!	!	!	!	!	!	!	!	!	!	!	!	!	!	!	!	!	!	!LO:DY:t= :mod=%s	!	!LO:DY:t= :mod=%s	!	!LO:DY:a	!	!
!	!	!	!	!	!	!	!	!	!	!	!	!	!	!	!	!	!	!	!	!	!	!	!	!	!	!LO:MO:mod=!LO&colon;DY&colon;ed=brack	!	!LO:MO:mod=!LO&colon;DY&colon;ed=brack	!	!LO:DY:t=pp.:mod=	!	!
!	!	!	!	!	!	!	!	!	!	!	!	!	!	!	!	!	!	!	!	!	!	!	!	!	!	!null	!	!null	!	!	!	!
8GG/	.	.	8G/	.	8B/	.	8d/	.	4r	.	.	4r	.	.	4r	.	.	4r	.	.	.	.	.	.	4G/	pp	4g/	pp	4b\	pp	8dd|\	.
8r	.	.	8r	.	8B/	.	8d/	.	.	.	.	.	.	.	.	.	.	.	.	.	.	.	.	.	.	.	.	.	.	.	8dd|\J	.
8GG/	.	.	8G/	.	8B/	.	8g/	.	4r	.	.	4r	.	.	4r	.	.	4r	.	.	.	.	.	.	4G/	.	4g/	.	8b\L	.	(8gg\L	.
8r	.	.	8r	.	8d/J	.	8d/J	.	.	.	.	.	.	.	.	.	.	.	.	.	.	.	.	.	.	.	.	.	8dd\J	.	8ff\J)	.
!	!	!	!	!	!	!	!	!	!	!	!	!	!	!	!	!	!	!LO:LB:g=original	!	!	!	!	!	!	!	!	!	!	!	!	!	!
=27	=27	=27	=27	=27	=27	=27	=27	=27	=27	=27	=27	=27	=27	=27	=27	=27	=27	=27	=27	=27	=27	=27	=27	=27	=27	=27	=27	=27	=27	=27	=27	=27
!	!	!	!	!	!	!	!	!	!LO:TX:a:mod=:t=2	!	!	!LO:TX:a:mod=:t=2	!	!	!LO:TX:a:mod=:t=2	!	!	!LO:TX:a:mod=:t=2	!	!	!	!	!	!	!	!	!	!	!	!	!	!
!	!	!	!	!	!	!	!	!	!	!	!	!	!	!	!	!	!	!	!	!	!	!	!	!	!	!	!	!	!	!	!	!
!	!	!	!	!	!	!	!	!	!	!	!	!	!	!	!	!	!	!	!	!	!	!	!	!	!	!	!	!	!	!	!	!
!	!	!	!	!	!	!	!	!	!	!	!	!	!	!	!	!	!	!	!	!	!	!	!	!	!	!	!	!	!	!	!	!
!	!	!	!	!	!	!	!	!	!	!	!	!	!	!	!	!	!	!	!	!	!	!	!	!	!	!	!	!	!	!	!	!
8GG/	.	.	8G/	.	8B/L	.	8d#X/L	.	1.r	.	.	1.r	.	.	1.r	.	.	1.r	.	.	.	.	.	.	4G/	.	4g/	.	(8b\L	.	8dd#X\L	.
8r	.	.	8r	.	8c/	.	8e/J	.	.	.	.	.	.	.	.	.	.	.	.	.	.	.	.	.	.	.	.	.	8cc\J)	.	8ee\J	.
8GG/	.	.	8G/	.	8G/	.	4.e/	.	.	.	.	.	.	.	.	.	.	.	.	.	.	.	.	.	4G/	.	4g/	.	(4.cc\	.	4.ee\	.
8r	.	.	8r	.	8c/	.	.	.	.	.	.	.	.	.	.	.	.	.	.	.	.	.	.	.	.	.	.	.	.	.	.	.
8GG/	.	.	8G/	.	8c/	.	.	.	.	.	.	.	.	.	.	.	.	.	.	.	.	.	.	.	4G/	.	4g/	.	.	.	.	.
8r	.	.	8r	.	8e/J	.	8cc\	.	.	.	.	.	.	.	.	.	.	.	.	.	.	.	.	.	.	.	.	.	8ee\)	.	8ccc\	.
!	!	!	!	!	!	!	!LO:LB:g=original	!	!	!	!	!	!	!	!	!	!	!	!	!	!	!	!	!	!	!	!	!	!LO:LB:g=original	!	!	!
=28	=28	=28	=28	=28	=28	=28	=28	=28	=28	=28	=28	=28	=28	=28	=28	=28	=28	=28	=28	=28	=28	=28	=28	=28	=28	=28	=28	=28	=28	=28	=28	=28
!	!	!	!	!	!	!	!LO:TX:t=P:problem:ucięty scan:mod=	!	!	!	!	!	!	!	!	!	!	!	!	!	!	!	!	!	!	!	!LO:TX:mod=:t=P:problem:takt 28 repetycja	!	!	!	!	!
!	!	!	!	!	!	!	!LO:MO:mod=4cc	!	!	!	!	!	!	!	!	!	!	!	!	!	!	!	!	!	!	!	!LO:MO:mod=4g	!	!	!	!	!
8GG/	.	.	8G/	.	8c/L	.	4ryy	.	.	.	.	.	.	.	.	.	.	.	.	.	2.r	.	2.r	.	4G/	.	4g/yy	.	4cc\	.	4ee\	.
8r	.	.	8r	.	8e/	.	.	.	.	.	.	.	.	.	.	.	.	.	.	.	.	.	.	.	.	.	.	.	.	.	.	.
!	!	!	!	!	!	!	!	!	!	!	!	!	!	!	!	!	!	!	!	!	!	!	!	!	!	!	!LO:MO:mod=4g	!	!	!	!	!
8GG/	.	.	8G/	.	8c/	.	4e/	.	.	.	.	.	.	.	.	.	.	.	.	.	.	.	.	.	4G/	.	4g/yy	.	4cc\	.	4ee\	.
8r	.	.	8r	.	8e/	.	.	.	.	.	.	.	.	.	.	.	.	.	.	.	.	.	.	.	.	.	.	.	.	.	.	.
.	.	.	.	.	.	.	8qg/	.	.	.	.	.	.	.	.	.	.	.	.	.	.	.	.	.	.	.	.	.	.	.	8qgg/	.
!	!	!	!	!	!	!	!	!	!	!	!	!	!	!	!	!	!	!	!	!	!	!	!	!	!	!	!LO:MO:mod=4g	!	!	!	!	!
8GG/	.	.	8A/	.	8c/	.	8f#X/L	.	.	.	.	.	.	.	.	.	.	.	.	.	.	.	.	.	4G/	.	4g/yy	.	4cc\	.	8ff#X\L	.
8r	.	.	8r	.	8d/J	.	16e/L	.	.	.	.	.	.	.	.	.	.	.	.	.	.	.	.	.	.	.	.	.	.	.	16ee\L	.
.	.	.	.	.	.	.	16f#/JJ	.	.	.	.	.	.	.	.	.	.	.	.	.	.	.	.	.	.	.	.	.	.	.	16ff#\JJ	.
=29	=29	=29	=29	=29	=29	=29	=29	=29	=29	=29	=29	=29	=29	=29	=29	=29	=29	=29	=29	=29	=29	=29	=29	=29	=29	=29	=29	=29	=29	=29	=29	=29
*	*	*	*Xtremolo	*	*	*	*	*	*	*	*	*	*	*	*	*	*	*	*	*	*	*	*	*	*	*	*	*	*	*	*	*
!LO:TX:b:i:t=organo.	!	!	!	!	!	!	!	!	!	!	!	!	!	!	!	!	!	!	!	!LO:DY:a	!	!	!	!LO:DY:a	!	!	!	!	!	!	!	!
!	!	!	!	!	!	!	!	!	!	!	!	!	!	!	!	!	!	!	!	!LO:DY:t=pi&colon;:mod= 	!	!	!	!	!	!	!	!	!	!	!	!
!	!	!	!	!	!	!	!	!	!	!	!	!	!	!	!	!	!	!	!	!	!	!	!	!LO:DY:t=p&colon;:mod= 	!	!	!	!	!	!	!	!
8GG/	.	.	8G/L	.	8B/L	.	4g/	.	4r	.	.	4r	.	.	4r	.	.	4r	.	p	4r	.	4r	p	4G/	.	4g/	.	4b\	.	4gg\	.
8r	.	.	8B/	.	8d/	.	.	.	.	.	.	.	.	.	.	.	.	.	.	.	.	.	.	.	.	.	.	.	.	.	.	.
!	!	!	!	!	!	!	!	!	!	!	!LO:DY:a	!	!	!LO:DY:t= :mod=%s	!	!	!LO:DY:t= :mod=%s	!	!	!LO:DY:t= :mod=%s	!	!LO:DY:a	!	!LO:DY:t= :mod=%s	!	!	!	!	!	!	!	!
!	!	!	!	!	!	!	!	!	!	!	!LO:DY:t=p&colon;:mod=	!	!	!LO:MO:mod=!LO&colon;DY&colon;ed=brack	!	!	!LO:MO:mod=!LO&colon;DY&colon;ed=brack	!	!	!null	!	!	!	!null	!	!	!	!	!	!	!	!
!	!	!	!	!	!	!	!	!	!	!	!	!	!	!null	!	!	!null	!	!	!	!	!	!	!	!	!	!	!	!	!	!	!
8BB/	.	.	8G/	.	8B/	.	4g/	.	4GG/	Sa-	p	4B\	Sa-	p	4d\	Sa-	p	4g/	Sa-	p	4G/	p	4g/	p	4g/	.	4dd\	.	4b\	.	4dd\	.
8r	.	.	8B/	.	8d/	.	.	.	.	.	.	.	.	.	.	.	.	.	.	.	.	.	.	.	.	.	.	.	.	.	.	.
8D/	.	.	8G/	.	8B/	.	4g/	.	4GG/	-ba-	.	4B\	-ba-	.	4d\	-ba-	.	4g/	-ba-	.	4G/	.	4g/	.	4g/	.	4dd\	.	4b\	.	4dd\	.
8r	.	.	8B/J	.	8d/J	.	.	.	.	.	.	.	.	.	.	.	.	.	.	.	.	.	.	.	.	.	.	.	.	.	.	.
=30	=30	=30	=30	=30	=30	=30	=30	=30	=30	=30	=30	=30	=30	=30	=30	=30	=30	=30	=30	=30	=30	=30	=30	=30	=30	=30	=30	=30	=30	=30	=30	=30
2G\	.	.	2G/	.	2B/	.	2g/	.	2GG/	-oth	.	2B\	-oth	.	2d\	-oth	.	2g/	-oth	.	2G/	.	2g/	.	2g/	.	2dd\	.	2b\	.	2dd\	.
4r	.	.	4r	.	4r	.	4r	.	4r	.	.	4r	.	.	4r	.	.	4r	.	.	4r	.	4r	.	4r	.	4r	.	4r	.	4r	.
!	!	!	!LO:LB:g=original	!	!LO:LB:g=original	!	!LO:LB:g=original	!	!	!	!	!LO:LB:g=original	!	!	!	!	!	!	!	!	!	!	!	!	!	!	!	!	!	!	!	!
!LO:LB:g=original	!	!	!	!	!	!	!	!	!	!	!	!	!	!	!	!	!	!	!	!	!LO:LB:g=original	!	!LO:LB:g=original	!	!LO:LB:g=original	!	!LO:LB:g=original	!	!LO:LB:g=original	!	!LO:LB:g=original	!
=31||	=31||	=31||	=31||	=31||	=31||	=31||	=31||	=31||	=31||	=31||	=31||	=31||	=31||	=31||	=31||	=31||	=31||	=31||	=31||	=31||	=31||	=31||	=31||	=31||	=31||	=31||	=31||	=31||	=31||	=31||	=31||	=31||
!!!OMD:
!!!OMD-mod: Allegro
*M2/2	*	*	*M2/2	*	*M2/2	*	*M2/2	*	*M2/2	*	*	*M2/2	*	*	*M2/2	*	*	*M2/2	*	*	*M2/2	*	*M2/2	*	*M2/2	*	*M2/2	*	*M2/2	*	*M2/2	*
*met(c)	*	*	*met(c)	*	*met(c)	*	*met(c)	*	*met(c)	*	*	*met(c)	*	*	*met(c)	*	*	*met(c)	*	*	*met(c)	*	*met(c)	*	*met(c)	*	*met(c)	*	*met(c)	*	*met(c)	*
*mmet(c|)	*	*	*mmet(c|)	*	*mmet(c|)	*	*mmet(c|)	*	*mmet(c|)	*	*	*mmet(c|)	*	*	*mmet(c|)	*	*	*mmet(c|)	*	*	*mmet(c|)	*	*mmet(c|)	*	*mmet(c|)	*	*mmet(c|)	*	*mmet(c|)	*	*mmet(c|)	*
*	*	*	*	*	*	*	*tremolo	*	*	*	*	*	*	*	*	*	*	*	*	*	*	*	*	*	*	*	*	*	*	*	*	*
!!LO:TX:t= :mod=Tutti
!LO:TX:a:i:t=Tutti.:mod=	!	!	!	!	!	!	!	!	!	!	!	!	!	!	!	!	!	!	!	!	!	!	!	!	!	!	!	!	!	!	!	!
!LO:TX:a:i:B:t=allo:mod=	!	!LO:DY:t= :mod=%s	!LO:TX:a:i:B:t=allo:mod=	!	!LO:TX:a:i:B:t=allo:mod=.	!LO:DY:t= :mod=%s	!LO:TX:a:B:t=Allegro:mod=	!LO:DY:t= :mod=%s	!	!	!	!	!	!LO:DY:t= :mod=%s	!	!	!LO:DY:t= :mod=%s	!LO:TX:a:i:t=Tutt&colon;:mod=	!	!LO:DY:t= :mod=%s	!LO:TX:a:i:B:t=allo:mod=	!LO:DY:t= :mod=%s	!LO:TX:a:i:B:t=allo:mod=	!LO:DY:t= :mod=%s	!	!LO:DY:t= :mod=%s	!	!LO:DY:t= :mod=%s	!LO:TX:a:i:B:t=allo:mod=	!	!LO:TX:a:i:B:t=allo:mod=	!LO:DY:t= :mod=%s
!LO:TX:a:B:t=Pleni:mod=	!	!LO:MO:mod=!LO&colon;DY&colon;ed=brack	!LO:TX:a:B:t=Pleni:mod=	!LO:DY:a	!LO:TX:a:B:t=Pleni:mod=	!LO:MO:mod=!LO&colon;DY&colon;ed=brack	!LO:TX:a:B:t=Pleni:mod=	!LO:MO:mod=!LO&colon;DY&colon;ed=brack	!LO:TX:a:B:t=Allõ:mod=	!	!LO:DY:a	!LO:TX:a:B:t=alli:mod=	!	!LO:MO:mod=!LO&colon;DY&colon;ed=brack	!LO:TX:a:B:t=Allô.:mod=	!	!LO:MO:mod=!LO&colon;DY&colon;ed=brack	!LO:TX:a:i:B:t=allo:mod=	!	!LO:MO:mod=!LO&colon;DY&colon;ed=brack	!LO:TX:a:B:t=Pleni:mod=	!LO:MO:mod=!LO&colon;DY&colon;ed=brack	!LO:TX:a:B:t=Pleni:mod=	!LO:MO:mod=!LO&colon;DY&colon;ed=brack	!LO:TX:a:B:t=Pleni:mod=	!	!LO:TX:a:B:t=Pleni:mod=	!LO:MO:mod=!LO&colon;DY&colon;ed=brack	!LO:TX:a:B:t=Pleni:mod=	!LO:DY:a	!LO:TX:a:B:t=Pleni:mod=	!LO:MO:mod=!LO&colon;DY&colon;ed=brack
!LO:TX:t=P:problem: metrum - C z kropką:mod=	!	!null	!LO:TX:t=P:problem: metrum - C z kropką:mod=	!LO:DY:t=for=&colon;:mod=	!LO:TX:t=P:problem: metrum - C z kropką:mod=	!null	!	!null	!	!	!LO:DY:t=for:mod=	!	!	!null	!	!	!null	!	!	!null	!LO:TX:t=P:problem: metrum - C z kropką:mod=	!null	!LO:TX:t=P:problem: metrum - C z kropką:mod=	!null	!LO:TX:t=P:problem: metrum - C z kropką:mod=	!null	!LO:TX:t=P:problem: metrum - C z kropką:mod=	!null	!	!LO:DY:t=for:mod=	!LO:TX:t=P:problem: metrum - C z kropką:mod=	!null
4C/	.	f	4c\	f	4G/ 4e	f	4cc\	f	2C/	Ple-	f	2e\	Ple-	f	2g\	Ple-	f	2cc\	Ple-	f	4e/	f	4cc\	f	4e/	f	4cc\	f	4e/	f	4cc\	f
4E/	.	.	4e\	.	16e/LL	.	16cc\LL	.	.	.	.	.	.	.	.	.	.	.	.	.	8e/L	.	8cc\L	.	8e/L	.	8cc\L	.	4e/	.	4cc\	.
.	.	.	.	.	16d/	.	16b\	.	.	.	.	.	.	.	.	.	.	.	.	.	.	.	.	.	.	.	.	.	.	.	.	.
.	.	.	.	.	16e/	.	16cc\	.	.	.	.	.	.	.	.	.	.	.	.	.	8e/J	.	8cc\J	.	8e/J	.	8cc\J	.	.	.	.	.
.	.	.	.	.	16f/JJ	.	16dd\JJ	.	.	.	.	.	.	.	.	.	.	.	.	.	.	.	.	.	.	.	.	.	.	.	.	.
*	*	*	*	*	*tremolo	*	*	*	*	*	*	*	*	*	*	*	*	*	*	*	*	*	*	*	*	*	*	*	*	*	*	*
!	!	!	!	!	!	!	!	!	!	!	!	!	!	!	!	!	!	!	!	!	!	!	!	!	!	!LO:DY:a:t=for&colon;	!	!	!	!	!	!
!	!	!	!	!	!	!	!	!	!	!	!	!	!	!	!	!	!	!	!	!	!	!	!	!	!	!LO:MO:mod= 	!	!	!	!	!	!
4G/	.	.	4g\	.	8e/L	.	8cc\L	.	4c\	-ni	.	4e\	-ni	.	4g\	-ni	.	4cc\	-ni	.	4e/	.	4cc\	.	4e/	f	4cc\	.	4e/	.	4cc\	.
.	.	.	.	.	8e/	.	8cc\	.	.	.	.	.	.	.	.	.	.	.	.	.	.	.	.	.	.	.	.	.	.	.	.	.
4c\	.	.	4cc\	.	8e/	.	8cc\	.	4c\	sunt	.	4e\	sunt	.	4g\	sunt	.	4cc\	sunt	.	4e/	.	4cc\	.	4e/	.	4cc\	.	4e/	.	4cc\	.
.	.	.	.	.	8e/J	.	8cc\J	.	.	.	.	.	.	.	.	.	.	.	.	.	.	.	.	.	.	.	.	.	.	.	.	.
=32	=32	=32	=32	=32	=32	=32	=32	=32	=32	=32	=32	=32	=32	=32	=32	=32	=32	=32	=32	=32	=32	=32	=32	=32	=32	=32	=32	=32	=32	=32	=32	=32
.	.	.	.	.	8qg/	.	8qee/	.	.	.	.	.	.	.	.	.	.	.	.	.	.	.	.	.	.	.	.	.	.	.	.	.
4G\	7	.	4g\	.	8f/L	.	8dd\L	.	4G\	Cae-	.	4f\	Cae-	.	4g\	Cae-	.	4dd\	Cae-	.	4g/	.	4dd\	.	4g/	.	4dd\	.	4f/	.	4dd\	.
.	.	.	.	.	16e/L	.	16cc\L	.	.	.	.	.	.	.	.	.	.	.	.	.	.	.	.	.	.	.	.	.	.	.	.	.
.	.	.	.	.	16f/JJ	.	16dd\JJ	.	.	.	.	.	.	.	.	.	.	.	.	.	.	.	.	.	.	.	.	.	.	.	.	.
4C/	.	.	4e\	.	4e/	.	8cc\L	.	4C/	-li	.	4e\	-li	.	4g\	-li	.	4cc\	-li	.	4e/	.	4cc\	.	4e/	.	4cc\	.	4e/	.	4cc\	.
.	.	.	.	.	.	.	8g\J	.	.	.	.	.	.	.	.	.	.	.	.	.	.	.	.	.	.	.	.	.	.	.	.	.
4r	.	.	2r	.	2r	.	8cc\L	.	2r	.	.	2r	.	.	2r	.	.	2r	.	.	2r	.	2r	.	2r	.	2r	.	2r	.	2r	.
.	.	.	.	.	.	.	8g\	.	.	.	.	.	.	.	.	.	.	.	.	.	.	.	.	.	.	.	.	.	.	.	.	.
4r	.	.	.	.	.	.	8cc\	.	.	.	.	.	.	.	.	.	.	.	.	.	.	.	.	.	.	.	.	.	.	.	.	.
.	.	.	.	.	.	.	8dd\J	.	.	.	.	.	.	.	.	.	.	.	.	.	.	.	.	.	.	.	.	.	.	.	.	.
!	!	!	!	!	!	!	!	!	!LO:DY:t=for:mod=	!	!	!	!	!	!	!	!	!	!	!	!	!	!	!	!	!	!	!	!	!	!	!
=33	=33	=33	=33	=33	=33	=33	=33	=33	=33	=33	=33	=33	=33	=33	=33	=33	=33	=33	=33	=33	=33	=33	=33	=33	=33	=33	=33	=33	=33	=33	=33	=33
4C/	.	.	8c\L	.	4G/ 4e 4cc	.	4ee\	.	(4C\	Cae-	.	2c\	Cae-	.	2g\	Cae-	.	2ee\	Cae-	.	4e/	.	4cc\	.	4cc\	.	4ee\	.	4cc\	.	4ee\	.
.	.	.	8c\	.	.	.	.	.	.	.	.	.	.	.	.	.	.	.	.	.	.	.	.	.	.	.	.	.	.	.	.	.
4E/	.	.	8e\	.	16cc\LL	.	16ee\LL	.	4E\)	.	.	.	.	.	.	.	.	.	.	.	8e/L	.	8cc\L	.	8cc\L	.	8ee\L	.	4cc\	.	4ee\	.
.	.	.	.	.	16b\	.	16dd\	.	.	.	.	.	.	.	.	.	.	.	.	.	.	.	.	.	.	.	.	.	.	.	.	.
.	.	.	8e\J	.	16cc\	.	16ee\	.	.	.	.	.	.	.	.	.	.	.	.	.	8e/J	.	8cc\J	.	8cc\J	.	8ee\J	.	.	.	.	.
.	.	.	.	.	16dd\JJ	.	16ff\JJ	.	.	.	.	.	.	.	.	.	.	.	.	.	.	.	.	.	.	.	.	.	.	.	.	.
4G\	.	.	8g\L	.	8cc\L	.	8ee\L	.	4G\	-li	.	4c\	-li	.	4g\	-li	.	4ee\	-li	.	4e/	.	4cc\	.	4cc\	.	4ee\	.	4cc\	.	4ee\	.
.	.	.	8g\	.	8cc\	.	8ee\	.	.	.	.	.	.	.	.	.	.	.	.	.	.	.	.	.	.	.	.	.	.	.	.	.
4c\	.	.	8cc\	.	8cc\	.	8ee\	.	4c\	et	.	4c\	et	.	4g\	et	.	4ee\	et	.	4e/	.	4cc\	.	4cc\	.	4ee\	.	4cc\	.	4ee\	.
.	.	.	8cc\J	.	8cc\J	.	8ee\J	.	.	.	.	.	.	.	.	.	.	.	.	.	.	.	.	.	.	.	.	.	.	.	.	.
!	!	!	!	!	!	!	!	!	!	!	!	!	!	!	!	!	!	!LO:LB:g=original	!	!	!	!	!	!	!	!	!	!	!	!	!	!
=34	=34	=34	=34	=34	=34	=34	=34	=34	=34	=34	=34	=34	=34	=34	=34	=34	=34	=34	=34	=34	=34	=34	=34	=34	=34	=34	=34	=34	=34	=34	=34	=34
.	.	.	.	.	8qqee/	.	8qgg/	.	.	.	.	.	.	.	.	.	.	.	.	.	.	.	.	.	.	.	.	.	.	.	.	.
4G\	7	.	4g\	.	8dd\L	.	8ff\L	.	4G\	ter-	.	4d\	ter-	.	4g\	ter-	.	4ff\	ter-	.	4g/	.	4dd\	.	4g/	.	4dd\	.	4dd\	.	4ff\	.
.	.	.	.	.	16cc\L	.	16ee\L	.	.	.	.	.	.	.	.	.	.	.	.	.	.	.	.	.	.	.	.	.	.	.	.	.
.	.	.	.	.	16dd\JJ	.	16ff\JJ	.	.	.	.	.	.	.	.	.	.	.	.	.	.	.	.	.	.	.	.	.	.	.	.	.
4C/	.	.	4c\	.	4cc\	.	8ee\L	.	4C/	-ra	.	4c\	-ra	.	4g\	-ra	.	4ee\	-ra	.	4e/	.	4cc\	.	4cc\	.	4ee\	.	4cc\	.	4ee\	.
.	.	.	.	.	.	.	8cc\J	.	.	.	.	.	.	.	.	.	.	.	.	.	.	.	.	.	.	.	.	.	.	.	.	.
2r	.	.	2r	.	2r	.	8ee\L	.	2r	.	.	2r	.	.	2r	.	.	2r	.	.	2r	.	2r	.	2r	.	2r	.	2r	.	2r	.
.	.	.	.	.	.	.	8cc\	.	.	.	.	.	.	.	.	.	.	.	.	.	.	.	.	.	.	.	.	.	.	.	.	.
.	.	.	.	.	.	.	8ee\	.	.	.	.	.	.	.	.	.	.	.	.	.	.	.	.	.	.	.	.	.	.	.	.	.
.	.	.	.	.	.	.	8ff\J	.	.	.	.	.	.	.	.	.	.	.	.	.	.	.	.	.	.	.	.	.	.	.	.	.
!	!	!	!	!	!	!	!LO:LB:g=original	!	!	!	!	!	!	!	!	!	!	!	!	!	!	!	!	!	!	!	!	!	!	!	!	!
=35	=35	=35	=35	=35	=35	=35	=35	=35	=35	=35	=35	=35	=35	=35	=35	=35	=35	=35	=35	=35	=35	=35	=35	=35	=35	=35	=35	=35	=35	=35	=35	=35
*	*	*	*	*	*Xtremolo	*	*	*	*	*	*	*	*	*	*	*	*	*	*	*	*	*	*	*	*	*	*	*	*	*	*	*
8c\L	5_ 3	.	8c\L	.	8ee\L	.	16gg\LL	.	2c\	Ple-	.	2c\	Glo-	.	2g\	Glo-	.	2ee\	Glo-	.	4g/	.	4g/	.	4cc\	.	4ee\	.	8ee\L	.	4gg\	.
.	.	.	.	.	.	.	16gg\	.	.	.	.	.	.	.	.	.	.	.	.	.	.	.	.	.	.	.	.	.	.	.	.	.
8B\	x 2	.	8B\	.	8dd\	.	16gg\	.	.	.	.	.	.	.	.	.	.	.	.	.	.	.	.	.	.	.	.	.	8dd\	.	.	.
.	.	.	.	.	.	.	16gg\	.	.	.	.	.	.	.	.	.	.	.	.	.	.	.	.	.	.	.	.	.	.	.	.	.
8c\	x 3	.	8c\	.	8ee\	.	16gg\	.	.	.	.	.	.	.	.	.	.	.	.	.	8g/L	.	8g/L	.	4r	.	4r	.	8ee\	.	8gg\L	.
.	.	.	.	.	.	.	16gg\	.	.	.	.	.	.	.	.	.	.	.	.	.	.	.	.	.	.	.	.	.	.	.	.	.
8d\J	x 4	.	8d\J	.	8ff\J	.	16gg\	.	.	.	.	.	.	.	.	.	.	.	.	.	8g/J	.	8g/J	.	.	.	.	.	8ff\J	.	8gg\J	.
.	.	.	.	.	.	.	16gg\JJ	.	.	.	.	.	.	.	.	.	.	.	.	.	.	.	.	.	.	.	.	.	.	.	.	.
!	!	!	!	!	!	!	!	!	!	!	!	!	!	!	!	!	!	!	!	!	!	!	!	!	!	!	!	!	!LO:LB:g=original	!	!	!
*Xtremolo	*	*	*	*	*	*	*	*	*	*	*	*	*	*	*	*	*	*	*	*	*	*	*	*	*	*	*	*	*	*	*	*
8e\L	x 3	.	8c\L	.	8gg\L	.	16gg\LL	.	4c\	-ni	.	4c\	-ri-	.	4g\	-ri-	.	4ee\	-ri-	.	4g/	.	4g/	.	4cc\	.	4ee\	.	8gg\L	.	4gg\	.
.	.	.	.	.	.	.	16gg\	.	.	.	.	.	.	.	.	.	.	.	.	.	.	.	.	.	.	.	.	.	.	.	.	.
8c\	.	.	8e\	.	8ee\	.	16gg\	.	.	.	.	.	.	.	.	.	.	.	.	.	.	.	.	.	.	.	.	.	8ee\	.	.	.
.	.	.	.	.	.	.	16gg\	.	.	.	.	.	.	.	.	.	.	.	.	.	.	.	.	.	.	.	.	.	.	.	.	.
8e\	.	.	8c\	.	8gg\	.	16gg\	.	4c\	sunt	.	4c\	-a	.	4g\	-a	.	4ee\	-a	.	4g/	.	4g/	.	4cc\	.	4ee\	.	8gg\	.	4gg\	.
.	.	.	.	.	.	.	16gg\	.	.	.	.	.	.	.	.	.	.	.	.	.	.	.	.	.	.	.	.	.	.	.	.	.
8c\J	.	.	8e\J	.	8ee\J	.	16gg\	.	.	.	.	.	.	.	.	.	.	.	.	.	.	.	.	.	.	.	.	.	8ee\J	.	.	.
.	.	.	.	.	.	.	16gg\JJ	.	.	.	.	.	.	.	.	.	.	.	.	.	.	.	.	.	.	.	.	.	.	.	.	.
!	!	!	!LO:LB:g=original	!	!LO:LB:g=original	!	!	!	!	!	!	!LO:LB:g=original	!	!	!	!	!	!	!	!	!	!	!	!	!	!	!	!	!	!	!	!
=36	=36	=36	=36	=36	=36	=36	=36	=36	=36	=36	=36	=36	=36	=36	=36	=36	=36	=36	=36	=36	=36	=36	=36	=36	=36	=36	=36	=36	=36	=36	=36	=36
*	*	*	*	*	*	*	*	*	*	*	*	*	*	*	*	*	*	*	*ij	*	*	*	*	*	*	*	*	*	*	*	*	*
8B\L	6_	.	8B/L	.	8dd\L	.	16gg\LL	.	2G\	Cae-	.	2B\	Glo-	.	2g\	Glo-	.	2dd\	Glo-	.	1g	.	1g	.	4g/	.	4dd\	.	8dd\L	.	1gg	.
.	.	.	.	.	.	.	16gg\	.	.	.	.	.	.	.	.	.	.	.	.	.	.	.	.	.	.	.	.	.	.	.	.	.
8A\	.	.	8A/	.	8cc\	.	16gg\	.	.	.	.	.	.	.	.	.	.	.	.	.	.	.	.	.	.	.	.	.	8cc\	.	.	.
.	.	.	.	.	.	.	16gg\	.	.	.	.	.	.	.	.	.	.	.	.	.	.	.	.	.	.	.	.	.	.	.	.	.
8B\	.	.	8B/	.	8dd\	.	16gg\	.	.	.	.	.	.	.	.	.	.	.	.	.	.	.	.	.	4r	.	4r	.	8dd\	.	.	.
.	.	.	.	.	.	.	16gg\	.	.	.	.	.	.	.	.	.	.	.	.	.	.	.	.	.	.	.	.	.	.	.	.	.
8c\J	.	.	8d/J	.	8ee\J	.	16gg\	.	.	.	.	.	.	.	.	.	.	.	.	.	.	.	.	.	.	.	.	.	8ee\J	.	.	.
.	.	.	.	.	.	.	16gg\JJ	.	.	.	.	.	.	.	.	.	.	.	.	.	.	.	.	.	.	.	.	.	.	.	.	.
8d\L	X	.	8B/L	.	8ff\L	.	16gg\LL	.	4G\	-li	.	4B\	-ri-	.	4g\	-ri-	.	4dd\	-ri-	.	.	.	.	.	4g/	.	4dd\	.	8ff\L	.	.	.
.	.	.	.	.	.	.	16gg\	.	.	.	.	.	.	.	.	.	.	.	.	.	.	.	.	.	.	.	.	.	.	.	.	.
8B\	.	.	8d/	.	8dd\	.	16gg\	.	.	.	.	.	.	.	.	.	.	.	.	.	.	.	.	.	.	.	.	.	8dd\	.	.	.
.	.	.	.	.	.	.	16gg\	.	.	.	.	.	.	.	.	.	.	.	.	.	.	.	.	.	.	.	.	.	.	.	.	.
!	!	!	!	!	!	!	!	!	!	!	!	!	!	!	!	!	!	!	!	!	!	!	!	!	!LO:TX:b:t=Verte Cito:mod=	!	!	!	!	!	!	!
8d\	.	.	8B/	.	8ff\	.	16gg\	.	4G\	et	.	4B\	-a	.	4g\	-a	.	4dd\	-a	.	.	.	.	.	4g/	.	4dd\	.	8ff\	.	.	.
.	.	.	.	.	.	.	16gg\	.	.	.	.	.	.	.	.	.	.	.	.	.	.	.	.	.	.	.	.	.	.	.	.	.
8B\J	.	.	8d/J	.	8dd\J	.	16gg\	.	.	.	.	.	.	.	.	.	.	.	.	.	.	.	.	.	.	.	.	.	8dd\J	.	.	.
*	*	*	*	*	*	*	*	*	*	*	*	*	*	*	*	*	*	*	*Xij	*	*	*	*	*	*	*	*	*	*	*	*	*
.	.	.	.	.	.	.	16gg\JJ	.	.	.	.	.	.	.	.	.	.	.	.	.	.	.	.	.	.	.	.	.	.	.	.	.
!	!	!	!	!	!	!	!	!	!	!	!	!	!	!	!LO:LB:g=original	!	!	!	!	!	!	!	!	!	!LO:LB:g=original	!	!	!	!	!	!	!
=37	=37	=37	=37	=37	=37	=37	=37	=37	=37	=37	=37	=37	=37	=37	=37	=37	=37	=37	=37	=37	=37	=37	=37	=37	=37	=37	=37	=37	=37	=37	=37	=37
!	!	!	!	!	!	!	!	!	!	!	!	!	!LO:MO:mod=Tu-	!	!	!LO:MO:mod=Tu-	!	!	!LO:MO:mod=Tu-	!	!	!	!	!	!	!	!	!	!	!	!	!
8c\L	.	.	8c\L	.	8ee\L	.	16gg\LL	.	2c\	ter-	.	2c\	tu-	.	2g\	tu-	.	2ee\	tu-	.	4g/	.	4g/	.	4cc\	.	4ee\	.	4ee\	.	4gg\	.
.	.	.	.	.	.	.	16gg\	.	.	.	.	.	.	.	.	.	.	.	.	.	.	.	.	.	.	.	.	.	.	.	.	.
8B\	.	.	8B\	.	8dd\	.	16gg\	.	.	.	.	.	.	.	.	.	.	.	.	.	.	.	.	.	.	.	.	.	.	.	.	.
.	.	.	.	.	.	.	16gg\	.	.	.	.	.	.	.	.	.	.	.	.	.	.	.	.	.	.	.	.	.	.	.	.	.
8c\	.	.	8c\	.	8ee\	.	16gg\	.	.	.	.	.	.	.	.	.	.	.	.	.	4g/	.	4g/	.	4r	.	4r	.	4r	.	8gg\L	.
.	.	.	.	.	.	.	16gg\	.	.	.	.	.	.	.	.	.	.	.	.	.	.	.	.	.	.	.	.	.	.	.	.	.
8d\J	.	.	8d\J	.	8ff\J	.	16gg\	.	.	.	.	.	.	.	.	.	.	.	.	.	.	.	.	.	.	.	.	.	.	.	8gg\J	.
.	.	.	.	.	.	.	16gg\JJ	.	.	.	.	.	.	.	.	.	.	.	.	.	.	.	.	.	.	.	.	.	.	.	.	.
8e\L	.	.	8c\L	.	8gg\L	.	16gg\LL	.	2c\	-ra	.	2c\	-a	.	2g\	-a	.	2ee\	-a	.	4g/	.	4g/	.	4cc\	.	4ee\	.	8gg\L	.	4gg\	.
.	.	.	.	.	.	.	16gg\	.	.	.	.	.	.	.	.	.	.	.	.	.	.	.	.	.	.	.	.	.	.	.	.	.
8c\	.	.	8e\	.	8ee\	.	16gg\	.	.	.	.	.	.	.	.	.	.	.	.	.	.	.	.	.	.	.	.	.	8ee\	.	.	.
.	.	.	.	.	.	.	16gg\	.	.	.	.	.	.	.	.	.	.	.	.	.	.	.	.	.	.	.	.	.	.	.	.	.
8e\	.	.	8c\	.	8gg\	.	16gg\	.	.	.	.	.	.	.	.	.	.	.	.	.	4g/	.	4g/	.	4cc\	.	4ee\	.	8gg\	.	4gg\	.
.	.	.	.	.	.	.	16gg\	.	.	.	.	.	.	.	.	.	.	.	.	.	.	.	.	.	.	.	.	.	.	.	.	.
8c\J	.	.	8e\J	.	8ee\J	.	16gg\	.	.	.	.	.	.	.	.	.	.	.	.	.	.	.	.	.	.	.	.	.	8ee\J	.	.	.
.	.	.	.	.	.	.	16gg\JJ	.	.	.	.	.	.	.	.	.	.	.	.	.	.	.	.	.	.	.	.	.	.	.	.	.
!	!	!	!	!	!	!	!	!	!	!	!	!	!	!	!	!	!	!	!	!	!	!	!	!	!	!	!	!	!LO:LB:g=original	!	!LO:LB:g=original	!
!LO:LB:g=original	!	!	!	!	!	!	!	!	!	!	!	!	!	!	!	!	!	!	!	!	!LO:LB:g=original	!	!	!	!	!	!	!	!	!	!	!
=38	=38	=38	=38	=38	=38	=38	=38	=38	=38	=38	=38	=38	=38	=38	=38	=38	=38	=38	=38	=38	=38	=38	=38	=38	=38	=38	=38	=38	=38	=38	=38	=38
8B\L	.	.	8B/L	.	8dd\L	.	16gg\LL	.	2G\	Glo-	.	2B\	Glo-	.	2g\	Glo-	.	2dd\	Glo-	.	1g	.	1g	.	4g/	.	4dd\	.	4dd\	.	1gg	.
.	.	.	.	.	.	.	16gg\	.	.	.	.	.	.	.	.	.	.	.	.	.	.	.	.	.	.	.	.	.	.	.	.	.
8A\	.	.	8A/	.	8cc\	.	16gg\	.	.	.	.	.	.	.	.	.	.	.	.	.	.	.	.	.	.	.	.	.	.	.	.	.
.	.	.	.	.	.	.	16gg\	.	.	.	.	.	.	.	.	.	.	.	.	.	.	.	.	.	.	.	.	.	.	.	.	.
8B\	.	.	8B/	.	8dd\	.	16gg\	.	.	.	.	.	.	.	.	.	.	.	.	.	.	.	.	.	4r	.	4r	.	4r	.	.	.
.	.	.	.	.	.	.	16gg\	.	.	.	.	.	.	.	.	.	.	.	.	.	.	.	.	.	.	.	.	.	.	.	.	.
8c\J	.	.	8c/J	.	8ee\J	.	16gg\	.	.	.	.	.	.	.	.	.	.	.	.	.	.	.	.	.	.	.	.	.	.	.	.	.
.	.	.	.	.	.	.	16gg\JJ	.	.	.	.	.	.	.	.	.	.	.	.	.	.	.	.	.	.	.	.	.	.	.	.	.
8d\L	.	.	8B\L	.	8ff\L	.	16gg\LL	.	4G\	-ri-	.	4B\	-ri-	.	4g\	-ri-	.	4dd\	-ri-	.	.	.	.	.	4g/	.	4dd\	.	8ff\L	.	.	.
.	.	.	.	.	.	.	16gg\	.	.	.	.	.	.	.	.	.	.	.	.	.	.	.	.	.	.	.	.	.	.	.	.	.
8B\	.	.	8d\	.	8dd\	.	16gg\	.	.	.	.	.	.	.	.	.	.	.	.	.	.	.	.	.	.	.	.	.	8dd\	.	.	.
.	.	.	.	.	.	.	16gg\	.	.	.	.	.	.	.	.	.	.	.	.	.	.	.	.	.	.	.	.	.	.	.	.	.
8d\	.	.	8B\	.	8ff\	.	16gg\	.	4G\	-a	.	4B\	-a	.	4g\	-a	.	4dd\	-a	.	.	.	.	.	4g/	.	4dd\	.	8ff\	.	.	.
.	.	.	.	.	.	.	16gg\	.	.	.	.	.	.	.	.	.	.	.	.	.	.	.	.	.	.	.	.	.	.	.	.	.
8B\J	.	.	8d\J	.	8dd\J	.	16gg\	.	.	.	.	.	.	.	.	.	.	.	.	.	.	.	.	.	.	.	.	.	8dd\J	.	.	.
.	.	.	.	.	.	.	16gg\JJ	.	.	.	.	.	.	.	.	.	.	.	.	.	.	.	.	.	.	.	.	.	.	.	.	.
=39	=39	=39	=39	=39	=39	=39	=39	=39	=39	=39	=39	=39	=39	=39	=39	=39	=39	=39	=39	=39	=39	=39	=39	=39	=39	=39	=39	=39	=39	=39	=39	=39
!	!	!	!	!	!	!	!	!	!	!LO:MO:mod=Tu-	!	!	!LO:MO:mod=Tu-	!	!	!LO:MO:mod=Tu-	!	!	!LO:MO:mod=Tu-	!	!	!	!	!	!	!	!	!	!	!	!	!
8c\L	.	.	8c\L	.	16ee\LL	.	4gg\	.	2c\	tu-	.	2c\	tu-	.	2g\	tu-	.	2ee\	tu-	.	4c/	.	4cc\	.	4cc\	.	4ee\	.	2ee\	.	4gg\	.
.	.	.	.	.	16ee\	.	.	.	.	.	.	.	.	.	.	.	.	.	.	.	.	.	.	.	.	.	.	.	.	.	.	.
8c\	.	.	8c\	.	16ee\	.	.	.	.	.	.	.	.	.	.	.	.	.	.	.	.	.	.	.	.	.	.	.	.	.	.	.
.	.	.	.	.	16ee\JJ	.	.	.	.	.	.	.	.	.	.	.	.	.	.	.	.	.	.	.	.	.	.	.	.	.	.	.
!	!	!	!	!	!	!	!	!	!	!	!	!	!	!	!	!	!	!	!	!	!	!	!	!	!	!	!LO:LB:g=original	!	!	!	!	!
*	*	*	*	*	*tremolo	*	*	*	*	*	*	*	*	*	*	*	*	*	*	*	*	*	*	*	*	*	*	*	*	*	*	*
8c\	.	.	8g\	.	16cc\LL	.	16ee\LL	.	.	.	.	.	.	.	.	.	.	.	.	.	8c/L	.	8cc\L	.	8c/L	.	8cc\L	.	.	.	4gg\	.
.	.	.	.	.	16cc\	.	16dd\	.	.	.	.	.	.	.	.	.	.	.	.	.	.	.	.	.	.	.	.	.	.	.	.	.
8c\J	.	.	8g\J	.	16cc\	.	16ee\	.	.	.	.	.	.	.	.	.	.	.	.	.	8c/J	.	8cc\J	.	8c/J	.	8cc\J	.	.	.	.	.
.	.	.	.	.	16cc\JJ	.	16ff\JJ	.	.	.	.	.	.	.	.	.	.	.	.	.	.	.	.	.	.	.	.	.	.	.	.	.
*tremolo	*	*	*tremolo	*	*	*	*Xtremolo	*	*	*	*	*	*	*	*	*	*	*	*	*	*	*	*	*	*	*	*	*	*	*	*	*
8B-X\L	4 2	.	8g\L	.	16cc\LL	.	8gg\L	.	2B-X\	-a	.	2c\	-a	.	2g\	-a	.	2cc\	-a	.	4c/	.	4cc\	.	4c/	.	4cc\	.	2cc\	.	2gg\	.
.	.	.	.	.	16cc\	.	.	.	.	.	.	.	.	.	.	.	.	.	.	.	.	.	.	.	.	.	.	.	.	.	.	.
8B-X\	.	.	8g\	.	16cc\	.	8ee\	.	.	.	.	.	.	.	.	.	.	.	.	.	.	.	.	.	.	.	.	.	.	.	.	.
.	.	.	.	.	16cc\	.	.	.	.	.	.	.	.	.	.	.	.	.	.	.	.	.	.	.	.	.	.	.	.	.	.	.
8B-X\	.	.	8g\	.	16cc\	.	8gg\	.	.	.	.	.	.	.	.	.	.	.	.	.	4c/	.	4cc\	.	4c/	.	4cc\	.	.	.	.	.
.	.	.	.	.	16cc\	.	.	.	.	.	.	.	.	.	.	.	.	.	.	.	.	.	.	.	.	.	.	.	.	.	.	.
8B-X\J	.	.	8g\J	.	16cc\	.	8ee\J	.	.	.	.	.	.	.	.	.	.	.	.	.	.	.	.	.	.	.	.	.	.	.	.	.
.	.	.	.	.	16cc\JJ	.	.	.	.	.	.	.	.	.	.	.	.	.	.	.	.	.	.	.	.	.	.	.	.	.	.	.
!	!	!	!	!	!	!	!	!	!LO:LB:g=original	!	!	!	!	!	!	!	!	!	!	!	!	!	!	!	!	!	!	!	!	!	!	!
=40	=40	=40	=40	=40	=40	=40	=40	=40	=40	=40	=40	=40	=40	=40	=40	=40	=40	=40	=40	=40	=40	=40	=40	=40	=40	=40	=40	=40	=40	=40	=40	=40
8A\L	.	.	8f\L	.	16cc\LL	.	4ff\	.	2A\	Glo-	.	2c\	Glo-	.	2f\	Glo-	.	2cc\	Ple-	.	4c/	.	4cc\	.	4c/	.	4cc\	.	1cc	.	1ff	.
.	.	.	.	.	16cc\	.	.	.	.	.	.	.	.	.	.	.	.	.	.	.	.	.	.	.	.	.	.	.	.	.	.	.
8A\	.	.	8f\	.	16cc\	.	.	.	.	.	.	.	.	.	.	.	.	.	.	.	.	.	.	.	.	.	.	.	.	.	.	.
.	.	.	.	.	16cc\	.	.	.	.	.	.	.	.	.	.	.	.	.	.	.	.	.	.	.	.	.	.	.	.	.	.	.
8A\	.	.	8f\	.	16cc\	.	16ff\LL	.	.	.	.	.	.	.	.	.	.	.	.	.	8c/L	.	8cc\L	.	8c/L	.	8cc\L	.	.	.	.	.
.	.	.	.	.	16cc\	.	16ee\	.	.	.	.	.	.	.	.	.	.	.	.	.	.	.	.	.	.	.	.	.	.	.	.	.
8A\J	.	.	8f\J	.	16cc\	.	16ff\	.	.	.	.	.	.	.	.	.	.	.	.	.	8c/J	.	8cc\J	.	8c/J	.	8cc\J	.	.	.	.	.
.	.	.	.	.	16cc\JJ	.	16gg\JJ	.	.	.	.	.	.	.	.	.	.	.	.	.	.	.	.	.	.	.	.	.	.	.	.	.
!	!	!	!	!	!	!	!	!	!	!	!	!	!	!	!	!	!	!LO:LB:g=original	!	!	!	!	!	!	!	!	!	!	!	!	!	!
8F\L	.	.	8f\L	.	16cc\LL	.	8aa\L	.	4F\	-ri-	.	4c\	-ri-	.	4f\	-ri-	.	4cc\	-ni	.	4c/	.	4cc\	.	4c/	.	4cc\	.	.	.	.	.
.	.	.	.	.	16cc\	.	.	.	.	.	.	.	.	.	.	.	.	.	.	.	.	.	.	.	.	.	.	.	.	.	.	.
8F\	.	.	8f\	.	16cc\	.	8ff\	.	.	.	.	.	.	.	.	.	.	.	.	.	.	.	.	.	.	.	.	.	.	.	.	.
.	.	.	.	.	16cc\	.	.	.	.	.	.	.	.	.	.	.	.	.	.	.	.	.	.	.	.	.	.	.	.	.	.	.
8F\	.	.	8f\	.	16cc\	.	8aa\	.	4F\	-a	.	4c\	-a	.	4f\	-a	.	4cc\	sunt	.	4c/	.	4cc\	.	4c/	.	4cc\	.	.	.	.	.
.	.	.	.	.	16cc\	.	.	.	.	.	.	.	.	.	.	.	.	.	.	.	.	.	.	.	.	.	.	.	.	.	.	.
8F\J	.	.	8f\J	.	16cc\	.	8ff\J	.	.	.	.	.	.	.	.	.	.	.	.	.	.	.	.	.	.	.	.	.	.	.	.	.
.	.	.	.	.	16cc\JJ	.	.	.	.	.	.	.	.	.	.	.	.	.	.	.	.	.	.	.	.	.	.	.	.	.	.	.
!	!	!	!	!	!	!	!	!	!	!	!	!	!	!	!	!	!	!	!	!	!	!	!LO:LB:g=original	!	!	!	!	!	!	!	!	!
=41	=41	=41	=41	=41	=41	=41	=41	=41	=41	=41	=41	=41	=41	=41	=41	=41	=41	=41	=41	=41	=41	=41	=41	=41	=41	=41	=41	=41	=41	=41	=41	=41
!	!	!	!	!	!	!	!	!	!	!	!	!	!	!	!	!	!	!	!	!	!	!	!	!	!	!	!LO:TX:t=P:problem:takt 41 repetycja:mod=	!	!	!	!	!
*	*	*	*	*	*	*	*	*	*	*ij	*	*	*	*	*	*ij	*	*	*	*	*	*	*	*	*	*	*	*	*	*	*	*
!	!	!	!	!	!	!	!	!	!	!	!	!	!	!	!	!	!	!	!	!	!	!	!	!	!	!	!LO:MO:mod=4cc	!	!	!	!	!
8E\L	6 -5	.	8g\L	.	16cc\LL	.	4cc\ 4gg	.	2E\	Glo-	.	2B-X\	Glo-	.	2g\	Glo-	.	2cc\	Cae-	.	4c/	.	4cc\	.	4c/	.	4cc\yy	.	2cc\	.	2gg\	.
.	.	.	.	.	16cc\	.	.	.	.	.	.	.	.	.	.	.	.	.	.	.	.	.	.	.	.	.	.	.	.	.	.	.
8E\	.	.	8g\	.	16cc\	.	.	.	.	.	.	.	.	.	.	.	.	.	.	.	.	.	.	.	.	.	.	.	.	.	.	.
.	.	.	.	.	16cc\	.	.	.	.	.	.	.	.	.	.	.	.	.	.	.	.	.	.	.	.	.	.	.	.	.	.	.
!	!	!	!	!	!	!	!	!	!	!	!	!	!	!	!	!	!	!	!	!	!	!	!	!	!	!	!LO:MO:mod=8ccL	!	!	!	!	!
8E\	.	.	8g\	.	16cc\	.	16gg\LL	.	.	.	.	.	.	.	.	.	.	.	.	.	8c/L	.	8cc\L	.	8c/L	.	8cc\Lyy	.	.	.	.	.
.	.	.	.	.	16cc\	.	16ff\	.	.	.	.	.	.	.	.	.	.	.	.	.	.	.	.	.	.	.	.	.	.	.	.	.
!	!	!	!	!	!	!	!	!	!	!	!	!	!	!	!	!	!	!	!	!	!	!	!	!	!	!	!LO:MO:mod=8ccJ	!	!	!	!	!
8E\J	.	.	8g\J	.	16cc\	.	16gg\	.	.	.	.	.	.	.	.	.	.	.	.	.	8c/J	.	8cc\J	.	8c/J	.	8cc\Jyy	.	.	.	.	.
.	.	.	.	.	16cc\JJ	.	16aa\JJ	.	.	.	.	.	.	.	.	.	.	.	.	.	.	.	.	.	.	.	.	.	.	.	.	.
!	!	!	!	!	!	!	!LO:LB:g=original	!	!	!	!	!	!	!	!	!	!	!	!	!	!	!	!	!	!	!	!	!	!	!	!	!
!	!	!	!	!	!	!	!LO:SIC:v:s=8bb-\L	!	!	!	!	!	!	!	!	!	!	!	!	!	!	!	!	!	!	!	!LO:MO:mod=4cc	!	!	!	!	!
8C/L	.	.	8e\L	.	16cc\LL	.	8bb\L	.	4C/	-ri-	.	4B-\	-ri-	.	4g\	-ri-	.	4cc\	-li	.	4c/	.	4cc\	.	4c/	.	4cc\yy	.	2gg\	.	2bb-X\	.
.	.	.	.	.	16cc\	.	.	.	.	.	.	.	.	.	.	.	.	.	.	.	.	.	.	.	.	.	.	.	.	.	.	.
8C/	.	.	8e\	.	16cc\	.	8gg\	.	.	.	.	.	.	.	.	.	.	.	.	.	.	.	.	.	.	.	.	.	.	.	.	.
.	.	.	.	.	16cc\	.	.	.	.	.	.	.	.	.	.	.	.	.	.	.	.	.	.	.	.	.	.	.	.	.	.	.
!	!	!	!	!	!	!	!	!	!	!	!	!	!	!	!	!	!	!	!	!	!	!	!	!	!	!	!LO:MO:mod=4cc	!	!	!	!	!
8C/	.	.	8e\	.	16cc\	.	8ee\	.	4C/	-a	.	4B-\	-a	.	4g\	-a	.	4cc\	et	.	4c/	.	4cc\	.	4c/	.	4cc\yy	.	.	.	.	.
.	.	.	.	.	16cc\	.	.	.	.	.	.	.	.	.	.	.	.	.	.	.	.	.	.	.	.	.	.	.	.	.	.	.
!	!	!	!	!	!	!	!LO:SIC:v:s=8b-\J	!	!	!	!	!	!	!	!	!	!	!	!	!	!	!	!	!	!	!	!	!	!	!	!	!
8C/J	.	.	8e\J	.	16cc\	.	8b\J	.	.	.	.	.	.	.	.	.	.	.	.	.	.	.	.	.	.	.	.	.	.	.	.	.
.	.	.	.	.	16cc\JJ	.	.	.	.	.	.	.	.	.	.	.	.	.	.	.	.	.	.	.	.	.	.	.	.	.	.	.
*	*	*	*	*	*	*	*	*	*	*Xij	*	*	*	*	*	*Xij	*	*	*	*	*	*	*	*	*	*	*	*	*	*	*	*
!	!	!	!LO:LB:g=original	!	!	!	!	!	!	!	!	!LO:LB:g=original	!	!	!	!	!	!	!	!	!	!	!	!	!	!	!	!	!	!	!	!
=42	=42	=42	=42	=42	=42	=42	=42	=42	=42	=42	=42	=42	=42	=42	=42	=42	=42	=42	=42	=42	=42	=42	=42	=42	=42	=42	=42	=42	=42	=42	=42	=42
8F\L	.	.	8f\L	.	8cc\	.	8a/	.	2F\	tu-	.	2A\	tu-	.	2a\	tu-	.	2cc\	ter-	.	4c/	.	4cc\	.	4c/	.	4cc\	.	2ff\	.	1aa	.
8F\	.	.	8f\	.	4cc\	.	4aa\	.	.	.	.	.	.	.	.	.	.	.	.	.	.	.	.	.	.	.	.	.	.	.	.	.
8F\	.	.	8f\	.	.	.	.	.	.	.	.	.	.	.	.	.	.	.	.	.	4cc\	.	4cc\	.	4c/	.	4cc\	.	.	.	.	.
8F\J	.	.	8f\J	.	4cc\	.	4aa\	.	.	.	.	.	.	.	.	.	.	.	.	.	.	.	.	.	.	.	.	.	.	.	.	.
8F\L	.	.	8f\L	.	.	.	.	.	2F\	-a	.	2A\	-a	.	2a\	-a	.	2cc\	-ra	.	4cc\	.	4cc\	.	4c/	.	4cc\	.	2cc\	.	.	.
8F\	.	.	8f\	.	4cc\	.	4aa\	.	.	.	.	.	.	.	.	.	.	.	.	.	.	.	.	.	.	.	.	.	.	.	.	.
8F\	.	.	8f\	.	.	.	.	.	.	.	.	.	.	.	.	.	.	.	.	.	4cc\	.	4cc\	.	4c/	.	4cc\	.	.	.	.	.
8F\J	.	.	8f\J	.	8cc\	.	8aa\	.	.	.	.	.	.	.	.	.	.	.	.	.	.	.	.	.	.	.	.	.	.	.	.	.
!	!	!	!	!	!LO:LB:g=original	!	!	!	!	!	!	!	!	!	!	!	!	!	!	!	!	!	!	!	!	!	!	!	!	!	!	!
=43	=43	=43	=43	=43	=43	=43	=43	=43	=43	=43	=43	=43	=43	=43	=43	=43	=43	=43	=43	=43	=43	=43	=43	=43	=43	=43	=43	=43	=43	=43	=43	=43
8F\L	4 2	.	8g\L	.	8dd\	.	8bbn\	.	2F\	Glo-	.	2Bn\	Glo-	.	2g\	Glo-	.	2dd\	Glo-	.	1g	.	1dd	.	4g/	.	4dd\	.	1dd	.	1bbn	.
8F\	.	.	8g\	.	4dd\	.	4bb\	.	.	.	.	.	.	.	.	.	.	.	.	.	.	.	.	.	.	.	.	.	.	.	.	.
8F\	.	.	8g\	.	.	.	.	.	.	.	.	.	.	.	.	.	.	.	.	.	.	.	.	.	8g/L	.	8dd\L	.	.	.	.	.
8F\J	.	.	8g\J	.	4dd\	.	4bb\	.	.	.	.	.	.	.	.	.	.	.	.	.	.	.	.	.	8g/J	.	8dd\J	.	.	.	.	.
8F\L	.	.	8g\L	.	.	.	.	.	4F\	-ri-	.	4B\	-ri-	.	4g\	-ri-	.	4dd\	-ri-	.	.	.	.	.	4g/	.	4dd\	.	.	.	.	.
8F\	.	.	8g\	.	4dd\	.	4bb\	.	.	.	.	.	.	.	.	.	.	.	.	.	.	.	.	.	.	.	.	.	.	.	.	.
8F\	.	.	8g\	.	.	.	.	.	4F\	-a	.	4B\	-a	.	4g\	-a	.	4dd\	-a	.	.	.	.	.	4g/	.	4dd\	.	.	.	.	.
8F\J	.	.	8g\J	.	8dd\	.	8bb\	.	.	.	.	.	.	.	.	.	.	.	.	.	.	.	.	.	.	.	.	.	.	.	.	.
!	!	!	!	!	!	!	!	!	!	!	!	!	!	!	!LO:LB:g=original	!	!	!	!	!	!	!	!	!	!	!	!	!	!	!	!	!
=44	=44	=44	=44	=44	=44	=44	=44	=44	=44	=44	=44	=44	=44	=44	=44	=44	=44	=44	=44	=44	=44	=44	=44	=44	=44	=44	=44	=44	=44	=44	=44	=44
*	*	*	*	*	*	*	*	*	*	*ij	*	*	*	*	*	*ij	*	*	*	*	*	*	*	*	*	*	*	*	*	*	*	*
8E\L	6	.	8g\L	.	8cc\	.	8ccc\	.	2E\	Glo-	.	2c\	Glo-	.	2g\	Glo-	.	2ee\	Glo-	.	4cc\	.	4ee\	.	4cc\	.	4ee\	.	2cc\	.	2ccc\	.
8E\	.	.	8g\	.	4cc\	.	4ccc\	.	.	.	.	.	.	.	.	.	.	.	.	.	.	.	.	.	.	.	.	.	.	.	.	.
8E\	.	.	8g\	.	.	.	.	.	.	.	.	.	.	.	.	.	.	.	.	.	4r	.	4r	.	4cc\	.	4ee\	.	.	.	.	.
8E\J	.	.	8g\J	.	8cc\	.	4ccc\	.	.	.	.	.	.	.	.	.	.	.	.	.	.	.	.	.	.	.	.	.	.	.	.	.
8A\L	6|	.	8f#X\L	.	8dd\	.	.	.	4A\	-ri-	.	4c\	-ri-	.	4f#X\	-ri-	.	4dd\	-ri-	.	4dd\	.	4dd\	.	4dd\	.	4dd\	.	2dd\	.	2ccc\	.
8A\	.	.	8f#X\	.	4dd\	.	4ccc\	.	.	.	.	.	.	.	.	.	.	.	.	.	.	.	.	.	.	.	.	.	.	.	.	.
8A\	.	.	8f#X\	.	.	.	.	.	4A\	-a	.	4c\	-a	.	4f#\	-a	.	4dd\	-a	.	4r	.	4r	.	4dd\	.	4dd\	.	.	.	.	.
*	*	*	*	*	*	*	*tremolo	*	*	*Xij	*	*	*	*	*	*Xij	*	*	*	*	*	*	*	*	*	*	*	*	*	*	*	*
8A\J	.	.	8f#X\J	.	8dd\	.	8ccc\	.	.	.	.	.	.	.	.	.	.	.	.	.	.	.	.	.	.	.	.	.	.	.	.	.
=45	=45	=45	=45	=45	=45	=45	=45	=45	=45	=45	=45	=45	=45	=45	=45	=45	=45	=45	=45	=45	=45	=45	=45	=45	=45	=45	=45	=45	=45	=45	=45	=45
!	!	!	!	!	!	!	!	!	!	!LO:MO:mod=Tu-	!	!LO:SIC:v:s=2c\	!LO:MO:mod=Tu-	!	!	!LO:MO:mod=Tu-	!	!	!LO:MO:mod=Tu-	!	!	!	!	!	!	!	!	!	!	!	!	!
8G\L	4	.	8g\L	.	16ee\LL	.	16ccc\LL	.	1G	tu-	.	2B\	tu-	.	(2g\	tu-	.	(2ee\	tu-	.	2e/	.	2cc\	.	2cc\	.	2ee\	.	2ee\	.	2ccc\	.
.	.	.	.	.	16ee\	.	16ccc\	.	.	.	.	.	.	.	.	.	.	.	.	.	.	.	.	.	.	.	.	.	.	.	.	.
8G\	.	.	8g\	.	16ee\	.	16ccc\	.	.	.	.	.	.	.	.	.	.	.	.	.	.	.	.	.	.	.	.	.	.	.	.	.
.	.	.	.	.	16ee\	.	16ccc\	.	.	.	.	.	.	.	.	.	.	.	.	.	.	.	.	.	.	.	.	.	.	.	.	.
8G\	.	.	8g\	.	16ee\	.	16ccc\	.	.	.	.	.	.	.	.	.	.	.	.	.	.	.	.	.	.	.	.	.	.	.	.	.
.	.	.	.	.	16ee\	.	16ccc\	.	.	.	.	.	.	.	.	.	.	.	.	.	.	.	.	.	.	.	.	.	.	.	.	.
8G\J	.	.	8g\J	.	16ee\	.	16ccc\	.	.	.	.	.	.	.	.	.	.	.	.	.	.	.	.	.	.	.	.	.	.	.	.	.
.	.	.	.	.	16ee\JJ	.	16ccc\JJ	.	.	.	.	.	.	.	.	.	.	.	.	.	.	.	.	.	.	.	.	.	.	.	.	.
8GG/L	3	.	8G/L	.	16dd\LL	.	16bb\LL	.	.	.	.	2B\	-a	.	2fn\)	.	.	2dd\)	.	.	2g/	.	2dd\	.	2g/	.	2dd\	.	2dd\	.	2bb\	.
.	.	.	.	.	16dd\	.	16bb\	.	.	.	.	.	.	.	.	.	.	.	.	.	.	.	.	.	.	.	.	.	.	.	.	.
8GG/	.	.	8G/	.	16dd\	.	16bb\	.	.	.	.	.	.	.	.	.	.	.	.	.	.	.	.	.	.	.	.	.	.	.	.	.
.	.	.	.	.	16dd\	.	16bb\	.	.	.	.	.	.	.	.	.	.	.	.	.	.	.	.	.	.	.	.	.	.	.	.	.
8GG/	.	.	8G/	.	16dd\	.	16bb\	.	.	.	.	.	.	.	.	.	.	.	.	.	.	.	.	.	.	.	.	.	.	.	.	.
.	.	.	.	.	16dd\	.	16bb\	.	.	.	.	.	.	.	.	.	.	.	.	.	.	.	.	.	.	.	.	.	.	.	.	.
8GG/J	.	.	8G/J	.	16dd\	.	16bb\	.	.	.	.	.	.	.	.	.	.	.	.	.	.	.	.	.	.	.	.	.	.	.	.	.
.	.	.	.	.	16dd\JJ	.	16bb\JJ	.	.	.	.	.	.	.	.	.	.	.	.	.	.	.	.	.	.	.	.	.	.	.	.	.
*	*	*	*	*	*	*	*Xtremolo	*	*	*	*	*	*	*	*	*	*	*	*	*	*	*	*	*	*	*	*	*	*	*	*	*
*	*	*	*Xtremolo	*	*	*	*	*	*	*	*	*	*	*	*	*	*	*	*	*	*	*	*	*	*	*	*	*	*	*	*	*
*Xtremolo	*	*	*	*	*	*	*	*	*	*	*	*	*	*	*	*	*	*	*	*	*	*	*	*	*	*	*	*	*	*	*	*
!	!	!	!	!	!	!	!	!	!	!	!	!	!	!	!	!	!	!	!	!	!	!	!	!	!LO:LB:g=original	!	!	!	!	!	!	!
=46	=46	=46	=46	=46	=46	=46	=46	=46	=46	=46	=46	=46	=46	=46	=46	=46	=46	=46	=46	=46	=46	=46	=46	=46	=46	=46	=46	=46	=46	=46	=46	=46
4C/	.	.	4c\	.	16cc\LL	.	8ccc\L	.	4C/	-a	.	4c\	O-	.	4e\	-a	.	4cc\	-a	.	4e/	.	4cc\	.	4e/	.	4ee\	.	4ee\	.	4ccc\	.
.	.	.	.	.	16cc\	.	.	.	.	.	.	.	.	.	.	.	.	.	.	.	.	.	.	.	.	.	.	.	.	.	.	.
.	.	.	.	.	16cc\	.	8cc\	.	.	.	.	.	.	.	.	.	.	.	.	.	.	.	.	.	.	.	.	.	.	.	.	.
.	.	.	.	.	16cc\	.	.	.	.	.	.	.	.	.	.	.	.	.	.	.	.	.	.	.	.	.	.	.	.	.	.	.
!	!	!	!	!	!	!	!	!	!	!	!	!	!	!	!	!	!	!LO:LB:g=original	!	!	!	!	!	!	!	!	!	!	!	!	!	!
4C/	.	.	4c\	.	16cc\	.	8cc\	.	4C/	O-	.	4c\	-san-	.	4e\	O-	.	4cc\	O-	.	8c/L	.	8cc\L	.	4r	.	4r	.	4r	.	4r	.
.	.	.	.	.	16cc\	.	.	.	.	.	.	.	.	.	.	.	.	.	.	.	.	.	.	.	.	.	.	.	.	.	.	.
!	!	!	!	!	!	!	!LO:TX:t=6:mod=	!	!	!	!	!	!	!	!	!	!	!	!	!	!	!	!	!	!	!	!	!	!	!	!	!
.	.	.	.	.	16cc\	.	8cc\J	.	.	.	.	.	.	.	.	.	.	.	.	.	8c/J	.	8cc\J	.	.	.	.	.	.	.	.	.
.	.	.	.	.	16cc\JJ	.	.	.	.	.	.	.	.	.	.	.	.	.	.	.	.	.	.	.	.	.	.	.	.	.	.	.
4E/	6 -5	.	4g\	.	16cc\LL	.	8bb-X\L	.	4E/	-san-	.	2c\	-na	.	2g\	-san-	.	2b-X\	-san-	.	4c/	.	4cc\	.	4c/	.	4cc\	.	2gg\	.	2bb-X\	.
.	.	.	.	.	16cc\	.	.	.	.	.	.	.	.	.	.	.	.	.	.	.	.	.	.	.	.	.	.	.	.	.	.	.
.	.	.	.	.	16cc\	.	8cc\	.	.	.	.	.	.	.	.	.	.	.	.	.	.	.	.	.	.	.	.	.	.	.	.	.
.	.	.	.	.	16cc\	.	.	.	.	.	.	.	.	.	.	.	.	.	.	.	.	.	.	.	.	.	.	.	.	.	.	.
4C/	.	.	4e\	.	16cc\	.	8cc\	.	4C/	-na	.	.	.	.	.	.	.	.	.	.	4c/	.	4cc\	.	4c/	.	4cc\	.	.	.	.	.
.	.	.	.	.	16cc\	.	.	.	.	.	.	.	.	.	.	.	.	.	.	.	.	.	.	.	.	.	.	.	.	.	.	.
.	.	.	.	.	16cc\	.	8cc\J	.	.	.	.	.	.	.	.	.	.	.	.	.	.	.	.	.	.	.	.	.	.	.	.	.
.	.	.	.	.	16cc\JJ	.	.	.	.	.	.	.	.	.	.	.	.	.	.	.	.	.	.	.	.	.	.	.	.	.	.	.
!	!	!	!	!	!	!	!LO:MO:mod=*null:null	!	!	!	!	!	!	!	!	!	!	!	!	!	!	!	!	!	!	!	!	!	!	!	!	!
*	*	*	*	*	*Xtremolo	*	*Xtuplet	*	*	*	*	*	*	*	*	*	*	*	*	*	*	*	*	*	*	*	*	*	*	*	*	*
!	!	!	!	!	!	!	!LO:LB:g=original	!	!LO:LB:g=original	!	!	!	!	!	!	!	!	!	!	!	!	!	!	!	!	!	!	!	!	!	!	!
!	!	!	!	!	!	!	!	!	!	!	!	!	!	!	!	!	!	!	!	!	!LO:LB:g=original	!	!	!	!	!	!	!	!	!	!	!
=47	=47	=47	=47	=47	=47	=47	=47	=47	=47	=47	=47	=47	=47	=47	=47	=47	=47	=47	=47	=47	=47	=47	=47	=47	=47	=47	=47	=47	=47	=47	=47	=47
!	!	!	!	!	!LO:MO:mod=*null:null	!	!	!	!	!	!	!	!	!	!	!	!	!	!	!	!	!	!	!	!	!	!	!	!	!	!	!
*	*	*	*	*	*Xtuplet	*	*	*	*	*	*	*	*	*	*	*	*	*	*	*	*	*	*	*	*	*	*	*	*	*	*	*
4F\	.	.	4f\	.	12cc\L	.	12aa\L	.	2F\	o-	.	[2c\	in	.	2f\	-na	.	2a\	-na	.	2c/	.	2cc\	.	2c/	.	2cc\	.	2ff\	.	2aa\	.
.	.	.	.	.	12cc\	.	12cc\	.	.	.	.	.	.	.	.	.	.	.	.	.	.	.	.	.	.	.	.	.	.	.	.	.
.	.	.	.	.	12cc\J	.	12cc\J	.	.	.	.	.	.	.	.	.	.	.	.	.	.	.	.	.	.	.	.	.	.	.	.	.
*	*	*	*	*	*	*	*tremolo	*	*	*	*	*	*	*	*	*	*	*	*	*	*	*	*	*	*	*	*	*	*	*	*	*
!	!	!	!	!	!	!	!LO:TX:t=3:mod=	!	!	!	!	!	!	!	!	!	!	!	!	!	!	!	!	!	!	!	!	!	!	!	!	!
4C\	.	.	4c\	.	12cc\L	.	12cc\L	.	.	.	.	.	.	.	.	.	.	.	.	.	.	.	.	.	.	.	.	.	.	.	.	.
.	.	.	.	.	12cc\	.	12cc\	.	.	.	.	.	.	.	.	.	.	.	.	.	.	.	.	.	.	.	.	.	.	.	.	.
.	.	.	.	.	12cc\J	.	12cc\J	.	.	.	.	.	.	.	.	.	.	.	.	.	.	.	.	.	.	.	.	.	.	.	.	.
*	*	*	*	*	*	*	*Xtremolo	*	*	*	*	*	*	*	*	*	*	*	*	*	*	*	*	*	*	*	*	*	*	*	*	*
4E\	6 5	.	4g\	.	12cc\L	.	12bb-X\L	.	4E\	-san-	.	4c\]	.	.	4g\	in	.	4b-X\	in	.	4c/	.	4cc\	.	4c/	.	4cc\	.	2gg\	.	2bb-X\	.
.	.	.	.	.	12cc\	.	12cc\	.	.	.	.	.	.	.	.	.	.	.	.	.	.	.	.	.	.	.	.	.	.	.	.	.
.	.	.	.	.	12cc\J	.	12cc\J	.	.	.	.	.	.	.	.	.	.	.	.	.	.	.	.	.	.	.	.	.	.	.	.	.
*	*	*	*	*	*	*	*tremolo	*	*	*	*	*	*	*	*	*	*	*	*	*	*	*	*	*	*	*	*	*	*	*	*	*
!	!	!	!	!	!	!	!LO:TX:t=3:mod=	!	!	!	!	!	!	!	!	!	!	!	!	!	!	!	!	!	!	!	!	!	!	!	!	!
4C\	.	.	4e\	.	12cc\L	.	12cc\L	.	4C/	-na	.	4c\	ex-	.	4g\	ex-	.	4b-\	ex-	.	4c/	.	4cc\	.	4c/	.	4cc\	.	.	.	.	.
.	.	.	.	.	12cc\	.	12cc\	.	.	.	.	.	.	.	.	.	.	.	.	.	.	.	.	.	.	.	.	.	.	.	.	.
.	.	.	.	.	12cc\J	.	12cc\J	.	.	.	.	.	.	.	.	.	.	.	.	.	.	.	.	.	.	.	.	.	.	.	.	.
*	*	*	*	*	*	*	*Xtremolo	*	*	*	*	*	*	*	*	*	*	*	*	*	*	*	*	*	*	*	*	*	*	*	*	*
!	!	!	!	!	!	!	!	!	!	!	!	!LO:LB:g=original	!	!	!	!	!	!	!	!	!	!	!	!	!	!	!	!	!	!	!	!
=48	=48	=48	=48	=48	=48	=48	=48	=48	=48	=48	=48	=48	=48	=48	=48	=48	=48	=48	=48	=48	=48	=48	=48	=48	=48	=48	=48	=48	=48	=48	=48	=48
4F\	6 4	.	4f\	.	12cc\L	.	12aa\L	.	(4F\	in	.	1c	-cel-	.	4f\	-cel-	.	4a\	-cel-	.	4c/	.	4cc\	.	4c/	.	4cc\	.	4ff\	.	4aa\	.
.	.	.	.	.	12cc\	.	12cc\	.	.	.	.	.	.	.	.	.	.	.	.	.	.	.	.	.	.	.	.	.	.	.	.	.
!	!	!	!	!	!	!	!LO:TX:t=6:mod=	!	!	!	!	!	!	!	!	!	!	!	!	!	!	!	!	!	!	!	!	!	!	!	!	!
.	.	.	.	.	12cc\J	.	12cc\J	.	.	.	.	.	.	.	.	.	.	.	.	.	.	.	.	.	.	.	.	.	.	.	.	.
4E\	6 5	.	4g\	.	12cc\L	.	12bb-X\L	.	4E\)	.	.	.	.	.	4g\	.	.	4b-X\	.	.	4c/	.	4cc\	.	4c/	.	4cc\	.	4gg\	.	4bb-X\	.
.	.	.	.	.	12cc\	.	12cc\	.	.	.	.	.	.	.	.	.	.	.	.	.	.	.	.	.	.	.	.	.	.	.	.	.
.	.	.	.	.	12cc\J	.	12cc\J	.	.	.	.	.	.	.	.	.	.	.	.	.	.	.	.	.	.	.	.	.	.	.	.	.
!LO:LB:g=original	!	!	!	!	!LO:LB:g=original	!	!	!	!	!	!	!	!	!	!	!	!	!	!	!	!	!	!	!	!	!	!	!	!	!	!	!
4F\	.	.	4f\	.	12cc\L	.	12aa\L	.	4F\	ex-	.	.	.	.	4f\	.	.	4a\	.	.	4c/	.	4cc\	.	4c/	.	4cc\	.	4ff\	.	4aa\	.
.	.	.	.	.	12cc\	.	12cc\	.	.	.	.	.	.	.	.	.	.	.	.	.	.	.	.	.	.	.	.	.	.	.	.	.
.	.	.	.	.	12cc\J	.	12cc\J	.	.	.	.	.	.	.	.	.	.	.	.	.	.	.	.	.	.	.	.	.	.	.	.	.
4E\	6 5	.	4g\	.	12cc\L	.	12bb-\L	.	4E\	.	.	.	.	.	4g\	.	.	4b-\	.	.	4c/	.	4cc\	.	4c/	.	4cc\	.	4gg\	.	4bb-\	.
.	.	.	.	.	12cc\	.	12cc\	.	.	.	.	.	.	.	.	.	.	.	.	.	.	.	.	.	.	.	.	.	.	.	.	.
.	.	.	.	.	12cc\J	.	12cc\J	.	.	.	.	.	.	.	.	.	.	.	.	.	.	.	.	.	.	.	.	.	.	.	.	.
=49	=49	=49	=49	=49	=49	=49	=49	=49	=49	=49	=49	=49	=49	=49	=49	=49	=49	=49	=49	=49	=49	=49	=49	=49	=49	=49	=49	=49	=49	=49	=49	=49
1F	.	.	1f	.	1cc	.	1aa	.	1F	-cel-	.	1c	.	.	1f	.	.	1a	.	.	2c/	.	1cc	.	1c	.	1cc	.	1ff	.	1aa	.
.	.	.	.	.	.	.	.	.	.	.	.	.	.	.	.	.	.	.	.	.	2c/	.	.	.	.	.	.	.	.	.	.	.
=50	=50	=50	=50	=50	=50	=50	=50	=50	=50	=50	=50	=50	=50	=50	=50	=50	=50	=50	=50	=50	=50	=50	=50	=50	=50	=50	=50	=50	=50	=50	=50	=50
!	!	!	!	!	!LO:MO:mod=1ee;	!	!LO:MO:mod=1gg;	!	!LO:MO:mod=1C;	!LO:MO:mod=-sis.	!	!LO:MO:mod=1c;	!LO:MO:mod=-sis.	!	!LO:MO:mod=1e;	!LO:MO:mod=-sis.	!	!LO:MO:mod=1g;	!	!	!	!	!	!	!	!	!	!	!LO:MO:mod=1ee;	!	!LO:MO:mod=1gg;	!
1C;	.	.	1e;	.	1ee	.	1gg	.	1C	-sis	.	1c	-sis	.	1e	-sis	.	1g	-ſis.	.	1e;	.	1cc;	.	1cc;	.	1ee;	.	1ee;;	.	1gg;;	.
==	==	==	==	==	==	==	==	==	==	==	==	==	==	==	==	==	==	==	==	==	==	==	==	==	==	==	==	==	==	==	==	==
*-	*-	*-	*-	*-	*-	*-	*-	*-	*-	*-	*-	*-	*-	*-	*-	*-	*-	*-	*-	*-	*-	*-	*-	*-	*-	*-	*-	*-	*-	*-	*-	*-
!!!system-decoration: [(s1,s2)][(s3,s4,s5,s6)][(s7,s8,s9,s10)][(s11,s12,s13)]s14
!!!RDF**kern: | = vertical stroke
!!!filter-modern: sic -sq | modori -m | shed -e "s/LO:DY:(a|b|rj)/LO:dy:$1/L" | autostem -r | tie -s | shed -k -e "s/[<>]//g" | humtr -p
!!!ENC: Andrzej Borzym
!!!END: 2020-09-24
!!!EED: Jan Barakat
!!!EEV: 2022-02-04
!!!EST: revision finished 2022-06-10
!!!ENC-modern: Andrzej Borzym
!!!END-modern: 2022-06-13
